; generated by PrusaSlicer 2.5.2+MacOS-x64 on 2023-04-12 at 08:32:22 UTC


;
;
; 

; external perimeters extrusion width = 0.45mm
; perimeters extrusion width = 0.45mm
; infill extrusion width = 0.45mm
; solid infill extrusion width = 0.45mm
; top infill extrusion width = 0.40mm
; first layer extrusion width = 0.42mm

M73 P0 R92
M73 Q0 S93
M201 X1000 Y1000 Z200 E5000 ; sets maximum accelerations, mm/sec^2
M203 X200 Y200 Z12 E120 ; sets maximum feedrates, mm / sec
M204 P1250 R1250 T1250 ; sets acceleration (P, T) and retract acceleration (R), mm/sec^2
M205 X8.00 Y8.00 Z0.40 E4.50 ; sets the jerk limits, mm/sec
M205 S0 T0 ; sets the minimum extruding and travel feed rate, mm/sec
M107
;TYPE:Custom
M862.3 P "MK3" ; printer model check
M862.1 P0.4 ; nozzle diameter check
M115 U3.12.2 ; tell printer latest fw version
G90 ; use absolute coordinates
M83 ; extruder relative mode
M104 S215 ; set extruder temp
M140 S60 ; set bed temp
M190 S60 ; wait for bed temp
M109 S215 ; wait for extruder temp
G28 W ; home all without mesh bed level
G80 ; mesh bed leveling

G1 Z0.2 F720
G1 Y-3 F1000 ; go outside print area
G92 E0
G1 X60 E9 F1000 ; intro line
G1 X100 E12.5 F1000 ; intro line

G92 E0
M221 S95

; Don't change E values below. Excessive value can damage the printer.

M907 E538 ; set extruder motor current
G21 ; set units to millimeters
G90 ; use absolute coordinates
M83 ; use relative distances for extrusion
M900 K0.05 ; Filament gcode LA 1.5
M900 K30 ; Filament gcode LA 1.0
M107
;LAYER_CHANGE
;Z:0.2
;HEIGHT:0.2
;BEFORE_LAYER_CHANGE
G92 E0.0
;0.2


G1 E-.8 F2100
G1 Z.4 F720
;AFTER_LAYER_CHANGE
;0.2
G1 X105.511 Y57.193 F10800
G1 Z.2 F720
M73 Q0 S92
G1 E.8 F2100
M204 S800
;TYPE:Skirt/Brim
;WIDTH:0.42
G1 F1200
G1 X106.557 Y56.316 E.04278
G1 X107.497 Y56.123 E.03007
G1 X116.103 Y56.123 E.26986
G1 X117.52 Y56.591 E.04676
G1 X144.316 Y76.466 E1.04606
G1 X145.133 Y77.559 E.04278
G1 X145.277 Y78.375 E.02599
G1 X145.277 Y131.625 E1.66962
G1 X144.885 Y132.932 E.04278
M73 P0 R91
G1 X144.316 Y133.534 E.02599
G1 X117.52 Y153.409 E1.04606
G1 X116.103 Y153.877 E.04676
G1 X107.497 Y153.877 E.26986
G1 X106.19 Y153.485 E.04278
G1 X105.313 Y152.44 E.04278
G1 X105.119 Y151.501 E.03007
G1 X105.119 Y58.499 E2.91598
G1 X105.494 Y57.25 E.0409
M204 S1000
; printing object Rev B Battery Holder v82.stl id:0 copy 0
;WIPE_START
G1 F8640
G1 X106.557 Y56.316 E-.32671
G1 X107.497 Y56.123 E-.22143
G1 X108.414 Y56.123 E-.21186
;WIPE_END
G1 E-.04 F2100
G1 Z.6 F720
G1 X114.738 Y131.325 F10800
G1 Z.2 F720
G1 E.8 F2100
M204 S800
;TYPE:Perimeter
;WIDTH:0.419999
G1 F1200
G1 X114.721 Y131.404 E.00252
G1 X114.721 Y150.713 E.60543
G1 X108.879 Y150.713 E.18315
G1 X108.879 Y59.287 E2.86659
G1 X114.721 Y59.287 E.18315
G1 X114.721 Y78.596 E.60543
G1 X114.729 Y78.694 E.00308
G1 X114.834 Y78.936 E.00826
G1 X115.069 Y79.119 E.00933
G1 X115.286 Y79.162 E.00696
G1 X142.113 Y79.162 E.84113
G1 X142.113 Y130.838 E1.62026
G1 X115.286 Y130.838 E.84113
G1 X115.147 Y130.855 E.0044
G1 X114.907 Y130.984 E.00853
G1 X114.774 Y131.164 E.00703
G1 X114.751 Y131.267 E.00329
M204 S1000
G1 X115.098 Y131.404 F10800
M204 S800
;TYPE:External perimeter
G1 F1200
G1 X115.098 Y151.09 E.61725
G1 X108.502 Y151.09 E.2068
G1 X108.502 Y58.91 E2.89023
G1 X115.098 Y58.91 E.2068
G1 X115.098 Y78.596 E.61725
G1 X115.16 Y78.736 E.0048
G1 X115.286 Y78.785 E.00424
G1 X142.49 Y78.785 E.85295
G1 X142.49 Y131.215 E1.6439
G1 X115.286 Y131.215 E.85295
G1 X115.16 Y131.264 E.00424
G1 X115.122 Y131.349 E.00292
M204 S1000
G1 X114.711 Y131.507 F10800
;WIPE_START
G1 F8640
G1 X115.118 Y134.64 E-.76
;WIPE_END
G1 E-.04 F2100
G1 Z.6 F720
G1 X141.943 Y80.096 F10800
G1 Z.2 F720
G1 E.8 F2100
M204 S800
;TYPE:Solid infill
;WIDTH:0.4207
G1 F1200
G1 X141.349 Y79.501 E.02639
G1 X140.815 Y79.501 E.01678
G1 X141.774 Y80.46 E.04259
G1 X141.774 Y80.994 E.01678
G1 X140.281 Y79.501 E.06632
G1 X139.746 Y79.501 E.01678
G1 X141.774 Y81.529 E.09006
G1 X141.774 Y82.063 E.01678
G1 X139.212 Y79.501 E.11379
G1 X138.678 Y79.501 E.01678
G1 X141.774 Y82.597 E.13752
G1 X141.774 Y83.131 E.01678
G1 X138.144 Y79.501 E.16126
G1 X137.609 Y79.501 E.01678
G1 X141.774 Y83.666 E.18499
G1 X141.774 Y84.2 E.01678
G1 X137.075 Y79.501 E.20873
G1 X136.541 Y79.501 E.01678
G1 X141.774 Y84.734 E.23246
G1 X141.774 Y85.268 E.01678
G1 X136.007 Y79.501 E.25619
G1 X135.472 Y79.501 E.01678
G1 X141.774 Y85.803 E.27993
G1 X141.774 Y86.337 E.01678
G1 X134.938 Y79.501 E.30366
G1 X134.404 Y79.501 E.01678
G1 X141.774 Y86.871 E.3274
G1 X141.774 Y87.405 E.01678
G1 X133.87 Y79.501 E.35113
G1 X133.335 Y79.501 E.01678
G1 X141.774 Y87.94 E.37486
G1 X141.774 Y88.474 E.01678
G1 X132.801 Y79.501 E.3986
G1 X132.267 Y79.501 E.01678
G1 X141.774 Y89.008 E.42233
G1 X141.774 Y89.543 E.01678
G1 X131.732 Y79.501 E.44607
G1 X131.198 Y79.501 E.01678
G1 X141.774 Y90.077 E.4698
G1 X141.774 Y90.611 E.01678
G1 X130.664 Y79.501 E.49353
G1 X130.13 Y79.501 E.01678
M73 P1 R91
M73 Q1 S92
G1 X141.774 Y91.145 E.51727
G1 X141.774 Y91.68 E.01678
G1 X129.595 Y79.501 E.541
G1 X129.061 Y79.501 E.01678
G1 X141.774 Y92.214 E.56474
G1 X141.774 Y92.748 E.01678
G1 X128.527 Y79.501 E.58847
G1 X127.993 Y79.501 E.01678
G1 X141.774 Y93.282 E.6122
G1 X141.774 Y93.817 E.01678
G1 X127.458 Y79.501 E.63594
G1 X126.924 Y79.501 E.01678
G1 X141.774 Y94.351 E.65967
G1 X141.774 Y94.885 E.01678
G1 X126.39 Y79.501 E.68341
G1 X125.856 Y79.501 E.01678
G1 X141.774 Y95.419 E.70714
G1 X141.774 Y95.954 E.01678
G1 X125.321 Y79.501 E.73087
G1 X124.787 Y79.501 E.01678
G1 X141.774 Y96.488 E.75461
G1 X141.774 Y97.022 E.01678
M73 Q1 S91
G1 X124.253 Y79.501 E.77834
G1 X123.719 Y79.501 E.01678
G1 X141.774 Y97.556 E.80208
G1 X141.774 Y98.091 E.01678
G1 X123.184 Y79.501 E.82581
G1 X122.65 Y79.501 E.01678
M73 P1 R90
G1 X141.774 Y98.625 E.84954
G1 X141.774 Y99.159 E.01678
G1 X122.116 Y79.501 E.87328
G1 X121.581 Y79.501 E.01678
G1 X141.774 Y99.694 E.89701
G1 X141.774 Y100.228 E.01678
G1 X121.047 Y79.501 E.92075
G1 X120.513 Y79.501 E.01678
G1 X141.774 Y100.762 E.94448
G1 X141.774 Y101.296 E.01678
G1 X119.979 Y79.501 E.96822
G1 X119.444 Y79.501 E.01678
G1 X141.774 Y101.831 E.99195
G1 X141.774 Y102.365 E.01678
G1 X118.91 Y79.501 E1.01568
G1 X118.376 Y79.501 E.01678
G1 X141.774 Y102.899 E1.03942
G1 X141.774 Y103.433 E.01678
G1 X117.842 Y79.501 E1.06315
G1 X117.307 Y79.501 E.01678
G1 X141.774 Y103.968 E1.08689
G1 X141.774 Y104.502 E.01678
G1 X116.773 Y79.501 E1.11062
G1 X116.239 Y79.501 E.01678
G1 X141.774 Y105.036 E1.13435
G1 X141.774 Y105.57 E.01678
G1 X115.535 Y79.332 E1.16563
M204 S1000
;WIPE_START
G1 F8640
G1 X117.862 Y81.659 E-.76
;WIPE_END
G1 E-.04 F2100
G1 Z.6 F720
G1 X114.551 Y60.183 F10800
G1 Z.2 F720
G1 E.8 F2100
M204 S800
G1 F1200
G1 X113.995 Y59.626 E.02472
G1 X113.46 Y59.626 E.01678
G1 X114.381 Y60.547 E.04092
G1 X114.381 Y61.082 E.01678
G1 X112.926 Y59.626 E.06465
G1 X112.392 Y59.626 E.01678
G1 X114.381 Y61.616 E.08838
G1 X114.381 Y62.15 E.01678
G1 X111.857 Y59.626 E.11212
G1 X111.323 Y59.626 E.01678
G1 X114.381 Y62.685 E.13585
G1 X114.381 Y63.219 E.01678
G1 X110.789 Y59.626 E.15959
G1 X110.255 Y59.626 E.01678
G1 X114.381 Y63.753 E.18332
G1 X114.381 Y64.287 E.01678
G1 X109.72 Y59.626 E.20705
G1 X109.219 Y59.626 E.01576
G1 X109.219 Y59.659 E.00102
G1 X114.381 Y64.822 E.22934
G1 X114.381 Y65.356 E.01678
G1 X109.219 Y60.193 E.22934
G1 X109.219 Y60.728 E.01678
G1 X114.381 Y65.89 E.22934
G1 X114.381 Y66.424 E.01678
G1 X109.219 Y61.262 E.22934
G1 X109.219 Y61.796 E.01678
G1 X114.381 Y66.959 E.22934
G1 X114.381 Y67.493 E.01678
G1 X109.219 Y62.33 E.22934
G1 X109.219 Y62.865 E.01678
G1 X114.381 Y68.027 E.22934
G1 X114.381 Y68.561 E.01678
G1 X109.219 Y63.399 E.22934
G1 X109.219 Y63.933 E.01678
G1 X114.381 Y69.096 E.22934
G1 X114.381 Y69.63 E.01678
G1 X109.219 Y64.467 E.22934
G1 X109.219 Y65.002 E.01678
G1 X114.381 Y70.164 E.22934
G1 X114.381 Y70.698 E.01678
G1 X109.219 Y65.536 E.22934
G1 X109.219 Y66.07 E.01678
G1 X114.381 Y71.233 E.22934
G1 X114.381 Y71.767 E.01678
G1 X109.219 Y66.604 E.22934
G1 X109.219 Y67.139 E.01678
G1 X114.381 Y72.301 E.22934
G1 X114.381 Y72.835 E.01678
G1 X109.219 Y67.673 E.22934
G1 X109.219 Y68.207 E.01678
G1 X114.381 Y73.37 E.22934
G1 X114.381 Y73.904 E.01678
G1 X109.219 Y68.741 E.22934
G1 X109.219 Y69.276 E.01678
G1 X114.381 Y74.438 E.22934
G1 X114.381 Y74.973 E.01678
G1 X109.219 Y69.81 E.22934
G1 X109.219 Y70.344 E.01678
G1 X114.381 Y75.507 E.22934
G1 X114.381 Y76.041 E.01678
G1 X109.219 Y70.878 E.22934
G1 X109.219 Y71.413 E.01678
G1 X114.381 Y76.575 E.22934
G1 X114.381 Y77.11 E.01678
G1 X109.219 Y71.947 E.22934
G1 X109.219 Y72.481 E.01678
G1 X114.381 Y77.644 E.22934
G1 X114.381 Y78.178 E.01678
G1 X109.219 Y73.016 E.22934
G1 X109.219 Y73.55 E.01678
G1 X114.395 Y78.726 E.22994
G1 X114.466 Y78.98 E.00828
G1 X114.561 Y79.14 E.00585
G1 X114.683 Y79.273 E.00567
G1 X114.931 Y79.43 E.00922
G1 X115.155 Y79.486 E.00726
G1 X141.774 Y106.105 E1.1825
G1 X141.774 Y106.639 E.01678
G1 X109.219 Y74.084 E1.44622
G1 X109.219 Y74.618 E.01678
M73 P2 R90
M73 Q2 S91
G1 X141.774 Y107.173 E1.44622
G1 X141.774 Y107.707 E.01678
G1 X109.219 Y75.153 E1.44622
G1 X109.219 Y75.687 E.01678
G1 X141.774 Y108.242 E1.44622
G1 X141.774 Y108.776 E.01678
G1 X109.219 Y76.221 E1.44622
G1 X109.219 Y76.755 E.01678
G1 X141.774 Y109.31 E1.44622
G1 X141.774 Y109.844 E.01678
G1 X109.219 Y77.29 E1.44622
G1 X109.219 Y77.824 E.01678
G1 X141.774 Y110.379 E1.44622
G1 X141.774 Y110.913 E.01678
M73 Q2 S90
G1 X109.219 Y78.358 E1.44622
G1 X109.219 Y78.892 E.01678
M73 P2 R89
G1 X141.774 Y111.447 E1.44622
G1 X141.774 Y111.982 E.01678
G1 X109.219 Y79.427 E1.44622
G1 X109.219 Y79.961 E.01678
G1 X141.774 Y112.516 E1.44622
G1 X141.774 Y113.05 E.01678
G1 X109.219 Y80.495 E1.44622
G1 X109.219 Y81.029 E.01678
G1 X141.774 Y113.584 E1.44622
G1 X141.774 Y114.119 E.01678
G1 X109.219 Y81.564 E1.44622
G1 X109.219 Y82.098 E.01678
G1 X141.774 Y114.653 E1.44622
G1 X141.774 Y115.187 E.01678
G1 X109.219 Y82.632 E1.44622
G1 X109.219 Y83.167 E.01678
G1 X141.774 Y115.721 E1.44622
G1 X141.774 Y116.256 E.01678
G1 X109.219 Y83.701 E1.44622
G1 X109.219 Y84.235 E.01678
G1 X141.774 Y116.79 E1.44622
G1 X141.774 Y117.324 E.01678
G1 X109.219 Y84.769 E1.44622
G1 X109.219 Y85.304 E.01678
G1 X141.774 Y117.858 E1.44622
G1 X141.774 Y118.393 E.01678
G1 X109.219 Y85.838 E1.44622
G1 X109.219 Y86.372 E.01678
G1 X141.774 Y118.927 E1.44622
G1 X141.774 Y119.461 E.01678
G1 X109.219 Y86.906 E1.44622
G1 X109.219 Y87.441 E.01678
M73 P3 R89
M73 Q3 S90
G1 X141.774 Y119.995 E1.44622
G1 X141.774 Y120.53 E.01678
G1 X109.219 Y87.975 E1.44622
G1 X109.219 Y88.509 E.01678
G1 X141.774 Y121.064 E1.44622
G1 X141.774 Y121.598 E.01678
G1 X109.219 Y89.043 E1.44622
G1 X109.219 Y89.578 E.01678
G1 X141.774 Y122.132 E1.44622
G1 X141.774 Y122.667 E.01678
G1 X109.219 Y90.112 E1.44622
G1 X109.219 Y90.646 E.01678
G1 X141.774 Y123.201 E1.44622
G1 X141.774 Y123.735 E.01678
G1 X109.219 Y91.18 E1.44622
G1 X109.219 Y91.715 E.01678
M73 Q3 S89
G1 X141.774 Y124.27 E1.44622
G1 X141.774 Y124.804 E.01678
G1 X109.219 Y92.249 E1.44622
G1 X109.219 Y92.783 E.01678
M73 P3 R88
G1 X141.774 Y125.338 E1.44622
G1 X141.774 Y125.872 E.01678
G1 X109.219 Y93.317 E1.44622
G1 X109.219 Y93.852 E.01678
G1 X141.774 Y126.407 E1.44622
G1 X141.774 Y126.941 E.01678
G1 X109.219 Y94.386 E1.44622
G1 X109.219 Y94.92 E.01678
G1 X141.774 Y127.475 E1.44622
G1 X141.774 Y128.009 E.01678
G1 X109.219 Y95.455 E1.44622
G1 X109.219 Y95.989 E.01678
G1 X141.774 Y128.544 E1.44622
G1 X141.774 Y129.078 E.01678
G1 X109.219 Y96.523 E1.44622
G1 X109.219 Y97.057 E.01678
G1 X141.774 Y129.612 E1.44622
G1 X141.774 Y130.146 E.01678
G1 X109.219 Y97.592 E1.44622
G1 X109.219 Y98.126 E.01678
G1 X141.591 Y130.499 E1.43813
G1 X141.057 Y130.499 E.01678
G1 X109.219 Y98.66 E1.41439
G1 X109.219 Y99.194 E.01678
G1 X140.523 Y130.499 E1.39066
G1 X139.989 Y130.499 E.01678
M73 P4 R88
G1 X109.219 Y99.729 E1.36693
G1 X109.219 Y100.263 E.01678
M73 Q4 S89
G1 X139.454 Y130.499 E1.34319
G1 X138.92 Y130.499 E.01678
G1 X109.219 Y100.797 E1.31946
G1 X109.219 Y101.331 E.01678
G1 X138.386 Y130.499 E1.29572
G1 X137.852 Y130.499 E.01678
G1 X109.219 Y101.866 E1.27199
G1 X109.219 Y102.4 E.01678
G1 X137.317 Y130.499 E1.24826
G1 X136.783 Y130.499 E.01678
G1 X109.219 Y102.934 E1.22452
G1 X109.219 Y103.468 E.01678
G1 X136.249 Y130.499 E1.20079
G1 X135.715 Y130.499 E.01678
G1 X109.219 Y104.003 E1.17705
G1 X109.219 Y104.537 E.01678
G1 X135.18 Y130.499 E1.15332
G1 X134.646 Y130.499 E.01678
G1 X109.219 Y105.071 E1.12958
G1 X109.219 Y105.605 E.01678
G1 X134.112 Y130.499 E1.10585
G1 X133.578 Y130.499 E.01678
G1 X109.219 Y106.14 E1.08212
G1 X109.219 Y106.674 E.01678
M73 Q4 S88
G1 X133.043 Y130.499 E1.05838
G1 X132.509 Y130.499 E.01678
G1 X109.219 Y107.208 E1.03465
G1 X109.219 Y107.743 E.01678
M73 P4 R87
G1 X131.975 Y130.499 E1.01091
G1 X131.44 Y130.499 E.01678
G1 X109.219 Y108.277 E.98718
G1 X109.219 Y108.811 E.01678
G1 X130.906 Y130.499 E.96345
G1 X130.372 Y130.499 E.01678
G1 X109.219 Y109.345 E.93971
G1 X109.219 Y109.88 E.01678
G1 X129.838 Y130.499 E.91598
G1 X129.303 Y130.499 E.01678
G1 X109.219 Y110.414 E.89224
G1 X109.219 Y110.948 E.01678
G1 X128.769 Y130.499 E.86851
G1 X128.235 Y130.499 E.01678
G1 X109.219 Y111.482 E.84478
G1 X109.219 Y112.017 E.01678
G1 X127.701 Y130.499 E.82104
G1 X127.166 Y130.499 E.01678
G1 X109.219 Y112.551 E.79731
G1 X109.219 Y113.085 E.01678
G1 X126.632 Y130.499 E.77357
G1 X126.098 Y130.499 E.01678
G1 X109.219 Y113.619 E.74984
G1 X109.219 Y114.154 E.01678
G1 X125.564 Y130.499 E.72611
G1 X125.029 Y130.499 E.01678
G1 X109.219 Y114.688 E.70237
G1 X109.219 Y115.222 E.01678
G1 X124.495 Y130.499 E.67864
G1 X123.961 Y130.499 E.01678
G1 X109.219 Y115.756 E.6549
G1 X109.219 Y116.291 E.01678
G1 X123.427 Y130.499 E.63117
G1 X122.892 Y130.499 E.01678
G1 X109.219 Y116.825 E.60744
G1 X109.219 Y117.359 E.01678
G1 X122.358 Y130.499 E.5837
G1 X121.824 Y130.499 E.01678
G1 X109.219 Y117.894 E.55997
G1 X109.219 Y118.428 E.01678
M73 P5 R87
G1 X121.29 Y130.499 E.53623
G1 X120.755 Y130.499 E.01678
G1 X109.219 Y118.962 E.5125
G1 X109.219 Y119.496 E.01678
G1 X120.221 Y130.499 E.48877
G1 X119.687 Y130.499 E.01678
M73 Q5 S88
G1 X109.219 Y120.031 E.46503
G1 X109.219 Y120.565 E.01678
G1 X119.152 Y130.499 E.4413
G1 X118.618 Y130.499 E.01678
G1 X109.219 Y121.099 E.41756
G1 X109.219 Y121.633 E.01678
G1 X118.084 Y130.499 E.39383
G1 X117.55 Y130.499 E.01678
G1 X109.219 Y122.168 E.3701
G1 X109.219 Y122.702 E.01678
G1 X117.015 Y130.499 E.34636
G1 X116.481 Y130.499 E.01678
G1 X109.219 Y123.236 E.32263
G1 X109.219 Y123.77 E.01678
G1 X115.947 Y130.499 E.29889
G1 X115.413 Y130.499 E.01678
G1 X109.219 Y124.305 E.27516
G1 X109.219 Y124.839 E.01678
G1 X114.952 Y130.572 E.25469
G1 X114.812 Y130.632 E.00478
G1 X114.63 Y130.785 E.00746
G1 X109.219 Y125.373 E.24041
G1 X109.219 Y125.907 E.01678
G1 X114.431 Y131.12 E.23157
G1 X114.402 Y131.205 E.00281
G1 X114.381 Y131.395 E.00601
G1 X114.381 Y131.604 E.00657
G1 X109.219 Y126.442 E.22934
G1 X109.219 Y126.976 E.01678
G1 X114.381 Y132.139 E.22934
G1 X114.381 Y132.673 E.01678
G1 X109.219 Y127.51 E.22934
G1 X109.219 Y128.044 E.01678
G1 X114.381 Y133.207 E.22934
G1 X114.381 Y133.741 E.01678
G1 X109.219 Y128.579 E.22934
G1 X109.219 Y129.113 E.01678
G1 X114.381 Y134.276 E.22934
G1 X114.381 Y134.81 E.01678
G1 X109.219 Y129.647 E.22934
G1 X109.219 Y130.182 E.01678
G1 X114.381 Y135.344 E.22934
G1 X114.381 Y135.878 E.01678
G1 X109.219 Y130.716 E.22934
G1 X109.219 Y131.25 E.01678
G1 X114.381 Y136.413 E.22934
G1 X114.381 Y136.947 E.01678
G1 X109.219 Y131.784 E.22934
G1 X109.219 Y132.319 E.01678
G1 X114.381 Y137.481 E.22934
G1 X114.381 Y138.015 E.01678
G1 X109.219 Y132.853 E.22934
G1 X109.219 Y133.387 E.01678
G1 X114.381 Y138.55 E.22934
G1 X114.381 Y139.084 E.01678
G1 X109.219 Y133.921 E.22934
G1 X109.219 Y134.456 E.01678
G1 X114.381 Y139.618 E.22934
G1 X114.381 Y140.152 E.01678
G1 X109.219 Y134.99 E.22934
G1 X109.219 Y135.524 E.01678
G1 X114.381 Y140.687 E.22934
G1 X114.381 Y141.221 E.01678
G1 X109.219 Y136.058 E.22934
G1 X109.219 Y136.593 E.01678
G1 X114.381 Y141.755 E.22934
G1 X114.381 Y142.289 E.01678
G1 X109.219 Y137.127 E.22934
G1 X109.219 Y137.661 E.01678
G1 X114.381 Y142.824 E.22934
