; generated by PrusaSlicer 2.5.2+MacOS-x64 on 2023-04-13 at 03:29:06 UTC


;
;
; 

; external perimeters extrusion width = 0.45mm
; perimeters extrusion width = 0.45mm
; infill extrusion width = 0.45mm
; solid infill extrusion width = 0.45mm
; top infill extrusion width = 0.40mm
; first layer extrusion width = 0.42mm

M73 P0 R107
M73 Q0 S111
M201 X1000 Y1000 Z200 E5000 ; sets maximum accelerations, mm/sec^2
M203 X200 Y200 Z12 E120 ; sets maximum feedrates, mm / sec
M204 P1250 R1250 T1250 ; sets acceleration (P, T) and retract acceleration (R), mm/sec^2
M205 X8.00 Y8.00 Z0.40 E4.50 ; sets the jerk limits, mm/sec
M205 S0 T0 ; sets the minimum extruding and travel feed rate, mm/sec
M107
;TYPE:Custom
M862.3 P "MK3" ; printer model check
M862.1 P0.4 ; nozzle diameter check
M115 U3.12.2 ; tell printer latest fw version
G90 ; use absolute coordinates
M83 ; extruder relative mode
M104 S215 ; set extruder temp
M140 S60 ; set bed temp
M190 S60 ; wait for bed temp
M109 S215 ; wait for extruder temp
G28 W ; home all without mesh bed level
G80 ; mesh bed leveling

G1 Z0.2 F720
G1 Y-3 F1000 ; go outside print area
G92 E0
G1 X60 E9 F1000 ; intro line
G1 X100 E12.5 F1000 ; intro line

G92 E0
M221 S95

; Don't change E values below. Excessive value can damage the printer.

M907 E538 ; set extruder motor current
G21 ; set units to millimeters
G90 ; use absolute coordinates
M83 ; use relative distances for extrusion
M900 K0.05 ; Filament gcode LA 1.5
M900 K30 ; Filament gcode LA 1.0
M107
;LAYER_CHANGE
;Z:0.2
;HEIGHT:0.2
;BEFORE_LAYER_CHANGE
G92 E0.0
;0.2


G1 E-.8 F2100
G1 Z.4 F720
;AFTER_LAYER_CHANGE
;0.2
G1 X106.104 Y57.743 F10800
G1 Z.2 F720
G1 E.8 F2100
M204 S800
;TYPE:Skirt/Brim
;WIDTH:0.42
G1 F1200
G1 X107.15 Y56.867 E.04278
G1 X108.089 Y56.673 E.03008
G1 X116.911 Y56.673 E.27659
G1 X118.359 Y57.165 E.04795
G1 X143.648 Y76.59 E.99984
G1 X144.446 Y77.697 E.04278
G1 X144.577 Y78.475 E.02475
G1 X144.577 Y131.525 E1.66335
G1 X144.185 Y132.832 E.04278
G1 X143.648 Y133.41 E.02475
G1 X118.359 Y152.835 E.99984
G1 X116.911 Y153.327 E.04795
G1 X108.089 Y153.327 E.27659
G1 X106.782 Y152.935 E.04278
G1 X105.906 Y151.89 E.04278
G1 X105.712 Y150.95 E.03008
G1 X105.712 Y59.05 E2.88146
G1 X106.087 Y57.8 E.0409
M204 S1000
; printing object Rev B Battery Holder v99.stl id:0 copy 0
;WIPE_START
M73 Q0 S110
G1 F8640
G1 X107.15 Y56.867 E-.32671
G1 X108.089 Y56.673 E-.22155
G1 X109.006 Y56.673 E-.21174
;WIPE_END
G1 E-.04 F2100
G1 Z.6 F720
G1 X115.588 Y78.744 F10800
G1 Z.2 F720
G1 E.8 F2100
M204 S800
;TYPE:Perimeter
;WIDTH:0.419999
G1 F1200
G1 X115.681 Y79.013 E.00892
G1 X115.892 Y79.2 E.00885
G1 X116.149 Y79.262 E.00829
G1 X141.413 Y79.262 E.79212
G1 X141.413 Y130.738 E1.61399
G1 X116.154 Y130.738 E.79199
G1 X116.01 Y130.755 E.00455
G1 X115.806 Y130.854 E.00711
G1 X115.629 Y131.082 E.00903
G1 X115.584 Y131.304 E.0071
G1 X115.584 Y150.163 E.59132
G1 X109.416 Y150.163 E.19338
G1 X109.416 Y59.837 E2.8321
G1 X115.584 Y59.837 E.19338
G1 X115.584 Y78.685 E.59095
M204 S1000
G1 X115.961 Y78.696 F10800
M204 S800
;TYPE:External perimeter
G1 F1200
G1 X116.015 Y78.828 E.00447
G1 X116.149 Y78.885 E.00458
G1 X141.79 Y78.885 E.80394
G1 X141.79 Y131.115 E1.63763
G1 X116.154 Y131.115 E.80381
G1 X116.015 Y131.172 E.0047
G1 X115.961 Y131.304 E.00447
G1 X115.961 Y150.54 E.60314
G1 X109.039 Y150.54 E.21703
G1 X109.039 Y59.46 E2.85574
G1 X115.961 Y59.46 E.21703
G1 X115.961 Y78.636 E.60126
M204 S1000
G1 X115.872 Y78.808 F10800
;WIPE_START
G1 F8640
G1 X116.015 Y78.828 E-.04604
G1 X116.149 Y78.885 E-.03372
G1 X119.095 Y78.885 E-.68024
;WIPE_END
G1 E-.04 F2100
G1 Z.6 F720
G1 X116.083 Y95.648 F10800
G1 Z.2 F720
G1 E.8 F2100
M204 S800
;TYPE:Perimeter
G1 F1200
G1 X115.936 Y95.619 E.0047
G1 X115.701 Y95.436 E.00933
G1 X115.596 Y95.194 E.00826
G1 X115.588 Y95.096 E.00308
G1 X115.588 Y84.654 E.32743
G1 X115.633 Y84.432 E.00708
G1 X115.809 Y84.205 E.00902
G1 X116.013 Y84.106 E.00711
G1 X116.154 Y84.088 E.00444
G1 X118.596 Y84.088 E.0766
G1 X118.895 Y84.173 E.00974
G1 X119.084 Y84.366 E.00846
G1 X119.162 Y84.654 E.00933
G1 X119.162 Y95.096 E.32743
G1 X119.109 Y95.336 E.0077
G1 X118.925 Y95.557 E.00902
G1 X118.683 Y95.655 E.00817
G1 X116.142 Y95.66 E.07969
M204 S1000
G1 X116.154 Y95.285 F10800
M204 S800
;TYPE:External perimeter
G1 F1200
G1 X116.027 Y95.236 E.00424
G1 X115.965 Y95.096 E.0048
G1 X115.965 Y84.654 E.32743
G1 X116.019 Y84.522 E.00446
G1 X116.154 Y84.465 E.00459
G1 X118.596 Y84.465 E.0766
M73 P0 R106
G1 X118.733 Y84.524 E.00466
G1 X118.785 Y84.654 E.00439
G1 X118.785 Y95.096 E.32743
G1 X118.719 Y95.24 E.00495
G1 X118.596 Y95.285 E.00409
G1 X116.214 Y95.285 E.07471
M204 S1000
G1 X116.06 Y95.383 F10800
;WIPE_START
G1 F8640
G1 X116.027 Y95.236 E-.04447
G1 X115.965 Y95.096 E-.03536
G1 X115.965 Y92.151 E-.68017
;WIPE_END
G1 E-.04 F2100
G1 Z.6 F720
G1 X132.614 Y84.113 F10800
G1 Z.2 F720
G1 E.8 F2100
M204 S800
;TYPE:Perimeter
G1 F1200
G1 X132.704 Y84.088 E.0029
G1 X135.146 Y84.088 E.0766
G1 X135.419 Y84.158 E.00884
G1 X135.607 Y84.325 E.00786
G1 X135.699 Y84.534 E.00718
G1 X135.712 Y84.654 E.00377
G1 X135.712 Y95.096 E.32743
G1 X135.659 Y95.336 E.00769
G1 X135.525 Y95.516 E.00703
G1 X135.286 Y95.645 E.00853
G1 X135.146 Y95.662 E.0044
G1 X132.704 Y95.662 E.0766
G1 X132.431 Y95.592 E.00883
G1 X132.241 Y95.421 E.00801
G1 X132.14 Y95.146 E.0092
G1 X132.138 Y84.654 E.32898
G1 X132.216 Y84.366 E.00933
G1 X132.405 Y84.173 E.00846
G1 X132.557 Y84.13 E.00496
M204 S1000
G1 X132.704 Y84.465 F10800
M204 S800
;TYPE:External perimeter
G1 F1200
G1 X135.146 Y84.465 E.0766
G1 X135.273 Y84.514 E.00426
G1 X135.335 Y84.654 E.00479
G1 X135.335 Y95.096 E.32743
G1 X135.273 Y95.236 E.0048
G1 X135.146 Y95.285 E.00424
G1 X132.704 Y95.285 E.0766
G1 X132.558 Y95.216 E.00506
G1 X132.515 Y95.096 E.00398
G1 X132.515 Y84.654 E.32743
G1 X132.567 Y84.524 E.00439
G1 X132.648 Y84.489 E.00278
M204 S1000
G1 X132.807 Y84.079 F10800
;WIPE_START
G1 F8640
G1 X135.146 Y84.465 E-.57684
G1 X135.273 Y84.514 E-.03135
G1 X135.335 Y84.654 E-.03527
G1 X135.335 Y85.158 E-.11654
;WIPE_END
G1 E-.04 F2100
G1 Z.6 F720
G1 X139.172 Y121.894 F10800
G1 Z.2 F720
G1 E.8 F2100
M204 S800
;TYPE:Perimeter
G1 F1200
G1 X138.563 Y121.912 E.01911
G1 X135.712 Y121.912 E.08937
G1 X135.712 Y125.346 E.10768
G1 X135.663 Y125.578 E.00741
G1 X135.526 Y125.765 E.00728
G1 X135.244 Y125.904 E.00985
G1 X135.146 Y125.912 E.00308
G1 X132.704 Y125.912 E.0766
G1 X132.413 Y125.832 E.00944
G1 X132.225 Y125.648 E.00826
G1 X132.141 Y125.405 E.00804
G1 X132.138 Y121.912 E.10953
G1 X128.704 Y121.912 E.10768
G1 X128.451 Y121.853 E.00814
G1 X128.249 Y121.682 E.00829
G1 X128.14 Y121.396 E.00961
G1 X128.138 Y118.904 E.07814
G1 X128.19 Y118.666 E.00762
G1 X128.373 Y118.445 E.009
G1 X128.64 Y118.341 E.00899
G1 X132.138 Y118.338 E.10967
G1 X132.138 Y114.904 E.10768
G1 X132.204 Y114.639 E.00856
G1 X132.375 Y114.443 E.00816
G1 X132.622 Y114.344 E.00832
G1 X135.146 Y114.338 E.07917
G1 X135.364 Y114.381 E.00696
G1 X135.599 Y114.564 E.00933
G1 X135.698 Y114.779 E.00743
G1 X135.712 Y118.338 E.11158
G1 X139.146 Y118.338 E.10768
G1 X139.305 Y118.361 E.00502
G1 X139.486 Y118.451 E.00634
G1 X139.646 Y118.637 E.00769
G1 X139.712 Y118.904 E.0086
G1 X139.712 Y121.346 E.0766
G1 X139.646 Y121.613 E.0086
G1 X139.486 Y121.799 E.00769
G1 X139.305 Y121.889 E.00634
G1 X139.232 Y121.892 E.00229
M204 S1000
G1 X139.146 Y121.535 F10800
M204 S800
;TYPE:External perimeter
G1 F1200
G1 X135.335 Y121.535 E.11951
G1 X135.335 Y125.346 E.11951
G1 X135.273 Y125.486 E.00479
G1 X135.146 Y125.535 E.00426
G1 X132.704 Y125.535 E.0766
G1 X132.57 Y125.48 E.00452
G1 X132.515 Y125.346 E.00452
G1 X132.515 Y121.535 E.11951
G1 X128.704 Y121.535 E.11951
G1 X128.569 Y121.479 E.00457
G1 X128.515 Y121.346 E.00448
G1 X128.515 Y118.904 E.0766
G1 X128.58 Y118.761 E.00491
G1 X128.704 Y118.715 E.00413
G1 X132.515 Y118.715 E.11951
G1 X132.515 Y114.904 E.11951
G1 X132.583 Y114.758 E.00504
G1 X132.704 Y114.715 E.004
G1 X135.146 Y114.715 E.0766
G1 X135.273 Y114.764 E.00424
G1 X135.335 Y114.904 E.0048
G1 X135.335 Y118.715 E.11951
G1 X139.146 Y118.715 E.11951
G1 X139.26 Y118.753 E.00374
G1 X139.335 Y118.904 E.00529
G1 X139.335 Y121.346 E.0766
G1 X139.26 Y121.497 E.00529
G1 X139.203 Y121.516 E.00186
M204 S1000
G1 X139.043 Y121.921 F10800
;WIPE_START
G1 F8640
G1 X135.912 Y121.532 E-.76
;WIPE_END
G1 E-.04 F2100
G1 Z.6 F720
G1 X112.124 Y118.355 F10800
G1 Z.2 F720
G1 E.8 F2100
M204 S800
;TYPE:Perimeter
G1 F1200
G1 X112.502 Y118.338 E.01185
G1 X115.588 Y118.338 E.09676
G1 X115.588 Y114.904 E.10768
G1 X115.641 Y114.664 E.00769
G1 X115.775 Y114.484 E.00703
G1 X116.014 Y114.355 E.00853
G1 X116.154 Y114.338 E.0044
G1 X118.596 Y114.338 E.0766
G1 X118.851 Y114.398 E.0082
G1 X119.055 Y114.572 E.00839
G1 X119.159 Y114.84 E.00902
G1 X119.162 Y118.338 E.10967
G1 X122.596 Y118.338 E.10768
G1 X122.866 Y118.406 E.00871
G1 X123.061 Y118.581 E.00824
G1 X123.148 Y118.776 E.00668
G1 X123.162 Y118.904 E.00402
G1 X123.162 Y121.346 E.0766
G1 X123.104 Y121.596 E.00804
G1 X122.914 Y121.815 E.00909
G1 X122.655 Y121.909 E.00862
G1 X119.162 Y121.912 E.10953
G1 X119.162 Y125.346 E.10768
G1 X119.125 Y125.547 E.00639
G1 X118.996 Y125.746 E.00745
G1 X118.75 Y125.891 E.00896
G1 X118.596 Y125.912 E.00485
G1 X116.153 Y125.912 E.07662
G1 X115.896 Y125.85 E.00829
G1 X115.685 Y125.663 E.00885
G1 X115.596 Y125.444 E.00739
G1 X115.588 Y121.912 E.11075
G1 X112.154 Y121.912 E.10768
G1 X111.995 Y121.889 E.00502
G1 X111.814 Y121.799 E.00634
G1 X111.654 Y121.613 E.00769
G1 X111.588 Y121.346 E.0086
G1 X111.588 Y118.904 E.0766
G1 X111.654 Y118.637 E.0086
G1 X111.814 Y118.451 E.00769
G1 X111.995 Y118.361 E.00634
G1 X112.065 Y118.357 E.00218
M204 S1000
G1 X112.154 Y118.715 F10800
M204 S800
;TYPE:External perimeter
G1 F1200
G1 X115.965 Y118.715 E.11951
G1 X115.965 Y114.904 E.11951
G1 X116.027 Y114.764 E.0048
G1 X116.154 Y114.715 E.00424
G1 X118.599 Y114.715 E.07669
G1 X118.742 Y114.784 E.00497
G1 X118.785 Y114.904 E.00399
G1 X118.785 Y118.715 E.11951
G1 X122.596 Y118.715 E.11951
G1 X122.735 Y118.776 E.00474
G1 X122.785 Y118.904 E.00431
G1 X122.785 Y121.346 E.0766
G1 X122.715 Y121.493 E.00508
G1 X122.596 Y121.535 E.00396
G1 X118.785 Y121.535 E.11951
G1 X118.785 Y125.346 E.11951
G1 X118.73 Y125.48 E.00452
G1 X118.596 Y125.535 E.00452
G1 X116.153 Y125.535 E.0766
G1 X116.019 Y125.478 E.00458
G1 X115.965 Y125.346 E.00446
G1 X115.965 Y121.535 E.11951
G1 X112.154 Y121.535 E.11951
G1 X112.04 Y121.497 E.00374
G1 X111.965 Y121.346 E.00529
G1 X111.965 Y118.904 E.0766
G1 X112.04 Y118.753 E.00529
G1 X112.097 Y118.734 E.00186
M204 S1000
G1 X112.257 Y118.329 F10800
;WIPE_START
G1 F8640
G1 X115.388 Y118.718 E-.76
;WIPE_END
G1 E-.04 F2100
G1 Z.6 F720
G1 X140.478 Y79.432 F10800
G1 Z.2 F720
G1 E.8 F2100
M204 S800
;TYPE:Solid infill
;WIDTH:0.421626
G1 F1200
G1 X141.074 Y80.028 E.02654
G1 X141.074 Y80.563 E.01686
G1 X140.112 Y79.601 E.04284
G1 X139.576 Y79.601 E.01686
G1 X141.074 Y81.099 E.06669
G1 X141.074 Y81.635 E.01686
G1 X139.04 Y79.601 E.09054
G1 X138.505 Y79.601 E.01686
G1 X141.074 Y82.17 E.11439
G1 X141.074 Y82.706 E.01686
G1 X137.969 Y79.601 E.13824
G1 X137.434 Y79.601 E.01686
G1 X141.074 Y83.241 E.16209
G1 X141.074 Y83.777 E.01686
G1 X136.898 Y79.601 E.18594
G1 X136.363 Y79.601 E.01686
G1 X141.074 Y84.312 E.20979
G1 X141.074 Y84.848 E.01686
G1 X135.827 Y79.601 E.23364
G1 X135.291 Y79.601 E.01686
G1 X141.074 Y85.384 E.25749
G1 X141.074 Y85.919 E.01686
M73 P1 R106
G1 X134.756 Y79.601 E.28134
G1 X134.22 Y79.601 E.01686
G1 X141.074 Y86.455 E.30519
G1 X141.074 Y86.99 E.01686
G1 X133.685 Y79.601 E.32904
G1 X133.149 Y79.601 E.01686
M73 Q1 S110
G1 X141.074 Y87.526 E.35289
G1 X141.074 Y88.061 E.01686
G1 X132.614 Y79.601 E.37674
G1 X132.078 Y79.601 E.01686
G1 X141.074 Y88.597 E.4006
G1 X141.074 Y89.132 E.01686
G1 X131.543 Y79.601 E.42445
G1 X131.007 Y79.601 E.01686
G1 X135.154 Y83.749 E.18468
G1 X135.375 Y83.777 E.00703
G1 X135.583 Y83.86 E.00704
G1 X135.754 Y83.982 E.00663
G1 X135.883 Y84.127 E.00609
G1 X135.973 Y84.284 E.0057
G1 X136.032 Y84.462 E.00592
G1 X136.051 Y84.646 E.00582
G1 X141.074 Y89.668 E.22365
G1 X141.074 Y90.204 E.01686
G1 X136.051 Y85.182 E.22365
G1 X136.051 Y85.717 E.01686
G1 X141.074 Y90.739 E.22365
G1 X141.074 Y91.275 E.01686
G1 X136.051 Y86.253 E.22365
G1 X136.051 Y86.788 E.01686
G1 X141.074 Y91.81 E.22365
G1 X141.074 Y92.346 E.01686
G1 X136.051 Y87.324 E.22365
G1 X136.051 Y87.859 E.01686
G1 X141.074 Y92.881 E.22365
G1 X141.074 Y93.417 E.01686
G1 X136.051 Y88.395 E.22365
G1 X136.051 Y88.931 E.01686
G1 X141.074 Y93.953 E.22365
G1 X141.074 Y94.488 E.01686
G1 X136.051 Y89.466 E.22365
G1 X136.051 Y90.002 E.01686
G1 X141.074 Y95.024 E.22365
G1 X141.074 Y95.559 E.01686
G1 X136.051 Y90.537 E.22365
G1 X136.051 Y91.073 E.01686
G1 X141.074 Y96.095 E.22365
G1 X141.074 Y96.63 E.01686
G1 X136.051 Y91.608 E.22365
G1 X136.051 Y92.144 E.01686
G1 X141.074 Y97.166 E.22365
G1 X141.074 Y97.702 E.01686
G1 X136.051 Y92.68 E.22365
G1 X136.051 Y93.215 E.01686
G1 X141.074 Y98.237 E.22365
G1 X141.074 Y98.773 E.01686
G1 X136.051 Y93.751 E.22365
G1 X136.051 Y94.286 E.01686
G1 X141.074 Y99.308 E.22365
G1 X141.074 Y99.844 E.01686
G1 X136.051 Y94.822 E.22365
G1 X136.051 Y95.105 E.00891
G1 X136.02 Y95.326 E.00703
G1 X141.074 Y100.379 E.22506
G1 X141.074 Y100.915 E.01686
G1 X135.836 Y95.678 E.23323
G1 X135.754 Y95.768 E.00386
M73 Q1 S109
G1 X135.621 Y95.868 E.00524
G1 X135.53 Y95.907 E.00311
G1 X141.074 Y101.451 E.24687
G1 X141.074 Y101.986 E.01686
G1 X135.089 Y96.001 E.26653
G1 X134.551 Y96 E.01692
G1 X141.074 Y102.522 E.29045
G1 X141.074 Y103.057 E.01686
G1 X134.014 Y95.998 E.31438
G1 X133.477 Y95.996 E.01692
G1 X141.074 Y103.593 E.3383
G1 X141.074 Y104.128 E.01686
G1 X132.769 Y95.824 E.36981
M204 S1000
;WIPE_START
G1 F8640
G1 X135.097 Y98.152 E-.76
;WIPE_END
G1 E-.04 F2100
G1 Z.6 F720
G1 X134.788 Y83.918 F10800
G1 Z.2 F720
G1 E.8 F2100
M204 S800
G1 F1200
G1 X130.471 Y79.601 E.19224
G1 X129.936 Y79.601 E.01686
G1 X134.083 Y83.749 E.18468
G1 X133.547 Y83.749 E.01686
G1 X129.4 Y79.601 E.18468
G1 X128.865 Y79.601 E.01686
G1 X133.012 Y83.749 E.18468
G1 X132.693 Y83.749 E.01004
G1 X132.503 Y83.776 E.00603
G1 X128.329 Y79.601 E.18589
G1 X127.794 Y79.601 E.01686
G1 X132.143 Y83.951 E.19369
G1 X132.048 Y84.028 E.00385
G1 X131.9 Y84.244 E.00824
G1 X127.258 Y79.601 E.20673
G1 X126.722 Y79.601 E.01686
G1 X131.799 Y84.678 E.22606
G1 X131.799 Y85.213 E.01686
G1 X126.187 Y79.601 E.24991
G1 X125.651 Y79.601 E.01686
G1 X131.799 Y85.749 E.27376
G1 X131.799 Y86.284 E.01686
G1 X125.116 Y79.601 E.29761
G1 X124.58 Y79.601 E.01686
G1 X131.799 Y86.82 E.32146
G1 X131.799 Y87.355 E.01686
G1 X124.045 Y79.601 E.34531
G1 X123.509 Y79.601 E.01686
G1 X131.799 Y87.891 E.36916
G1 X131.799 Y88.427 E.01686
G1 X122.973 Y79.601 E.39301
G1 X122.438 Y79.601 E.01686
G1 X131.799 Y88.962 E.41686
G1 X131.799 Y89.498 E.01686
G1 X121.902 Y79.601 E.44071
G1 X121.367 Y79.601 E.01686
G1 X131.799 Y90.033 E.46456
G1 X131.799 Y90.569 E.01686
G1 X120.831 Y79.601 E.48841
G1 X120.296 Y79.601 E.01686
G1 X131.799 Y91.104 E.51226
G1 X131.799 Y91.64 E.01686
G1 X119.76 Y79.601 E.53612
G1 X119.224 Y79.601 E.01686
G1 X131.799 Y92.176 E.55997
G1 X131.799 Y92.711 E.01686
G1 X118.689 Y79.601 E.58382
G1 X118.153 Y79.601 E.01686
G1 X131.799 Y93.247 E.60767
G1 X131.799 Y93.782 E.01686
G1 X117.618 Y79.601 E.63152
G1 X117.082 Y79.601 E.01686
G1 X131.799 Y94.318 E.65537
G1 X131.799 Y94.853 E.01686
G1 X116.377 Y79.432 E.68678
M204 S1000
;WIPE_START
G1 F8640
G1 X118.704 Y81.759 E-.76
;WIPE_END
G1 E-.04 F2100
G1 Z.6 F720
G1 X114.626 Y60.007 F10800
G1 Z.2 F720
G1 E.8 F2100
M204 S800
G1 F1200
G1 X115.245 Y60.626 E.02756
G1 X115.245 Y61.161 E.01686
G1 X114.26 Y60.176 E.04385
G1 X113.724 Y60.176 E.01686
G1 X115.245 Y61.697 E.0677
G1 X115.245 Y62.232 E.01686
G1 X113.189 Y60.176 E.09155
G1 X112.653 Y60.176 E.01686
G1 X115.245 Y62.768 E.1154
G1 X115.245 Y63.303 E.01686
G1 X112.118 Y60.176 E.13925
G1 X111.582 Y60.176 E.01686
G1 X115.245 Y63.839 E.16311
G1 X115.245 Y64.375 E.01686
G1 X111.046 Y60.176 E.18696
G1 X110.511 Y60.176 E.01686
G1 X115.245 Y64.91 E.21081
G1 X115.245 Y65.446 E.01686
G1 X109.975 Y60.176 E.23466
G1 X109.755 Y60.176 E.00692
