; generated by PrusaSlicer 2.5.2+MacOS-x64 on 2023-04-13 at 05:51:56 UTC


;
;
; 

; external perimeters extrusion width = 0.45mm
; perimeters extrusion width = 0.45mm
; infill extrusion width = 0.45mm
; solid infill extrusion width = 0.45mm
; top infill extrusion width = 0.40mm
; support material extrusion width = 0.35mm
; first layer extrusion width = 0.42mm

M73 P0 R119
M73 Q0 S122
M201 X1000 Y1000 Z200 E5000 ; sets maximum accelerations, mm/sec^2
M203 X200 Y200 Z12 E120 ; sets maximum feedrates, mm / sec
M204 P1250 R1250 T1250 ; sets acceleration (P, T) and retract acceleration (R), mm/sec^2
M205 X8.00 Y8.00 Z0.40 E4.50 ; sets the jerk limits, mm/sec
M205 S0 T0 ; sets the minimum extruding and travel feed rate, mm/sec
M107
;TYPE:Custom
M862.3 P "MK3" ; printer model check
M862.1 P0.4 ; nozzle diameter check
M115 U3.12.2 ; tell printer latest fw version
G90 ; use absolute coordinates
M83 ; extruder relative mode
M104 S215 ; set extruder temp
M140 S60 ; set bed temp
M190 S60 ; wait for bed temp
M109 S215 ; wait for extruder temp
G28 W ; home all without mesh bed level
G80 ; mesh bed leveling

G1 Z0.2 F720
G1 Y-3 F1000 ; go outside print area
G92 E0
G1 X60 E9 F1000 ; intro line
G1 X100 E12.5 F1000 ; intro line

G92 E0
M221 S95

; Don't change E values below. Excessive value can damage the printer.

M907 E538 ; set extruder motor current
G21 ; set units to millimeters
G90 ; use absolute coordinates
M83 ; use relative distances for extrusion
M900 K0.05 ; Filament gcode LA 1.5
M900 K30 ; Filament gcode LA 1.0
M107
;LAYER_CHANGE
;Z:0.2
;HEIGHT:0.2
;BEFORE_LAYER_CHANGE
G92 E0.0
;0.2


G1 E-.8 F2100
G1 Z.4 F720
;AFTER_LAYER_CHANGE
;0.2
G1 X21.482 Y51.861 F10800
G1 Z.2 F720
G1 E.8 F2100
M204 S800
;TYPE:Skirt/Brim
;WIDTH:0.42
G1 F1200
G1 X23.003 Y51.231 E.05164
G1 X37.157 Y51.231 E.44378
G1 X38.476 Y51.63 E.0432
G1 X66.16 Y70.087 E1.04326
G1 X68.157 Y72.018 E.0871
G1 X68.853 Y73.699 E.05704
G1 X68.853 Y136.301 E1.96286
G1 X68.157 Y137.982 E.05704
G1 X66.16 Y139.913 E.0871
G1 X38.476 Y158.37 E1.04326
G1 X37.157 Y158.769 E.0432
G1 X23.003 Y158.769 E.44378
G1 X21.322 Y158.073 E.05704
G1 X19.688 Y156.439 E.07247
G1 X18.992 Y154.758 E.05704
G1 X18.992 Y55.242 E3.12025
G1 X19.688 Y53.561 E.05704
G1 X21.322 Y51.927 E.07247
G1 X21.426 Y51.884 E.00352
M204 S1000
; printing object Rev B Battery Holder v99.stl id:0 copy 0
;WIPE_START
G1 F8640
G1 X23.003 Y51.231 E-.39416
G1 X24.588 Y51.231 E-.36584
;WIPE_END
G1 E-.04 F2100
G1 Z.6 F720
G1 X38.791 Y55.242 F10800
G1 Z.2 F720
G1 E.8 F2100
M204 S800
;TYPE:Support material
G1 F1200
G1 X38.791 Y72.064 E.52745
G1 X64.842 Y72.064 E.8168
G1 X66.476 Y73.699 E.07247
M73 P0 R118
G1 X66.476 Y136.301 E1.96286
G1 X64.842 Y137.936 E.07247
G1 X38.791 Y137.936 E.8168
G1 X38.791 Y154.758 E.52745
G1 X37.157 Y156.392 E.07247
G1 X23.003 Y156.392 E.44378
G1 X21.369 Y154.758 E.07247
G1 X21.369 Y55.242 E3.12025
G1 X23.003 Y53.608 E.07247
G1 X37.157 Y53.608 E.44378
G1 X38.751 Y55.202 E.0707
M204 S1000
;WIPE_START
G1 F8640
G1 X37.157 Y53.608 E-.52063
G1 X36.12 Y53.608 E-.23937
;WIPE_END
G1 E-.04 F2100
G1 Z.6 F720
G1 X65.946 Y136.352 F10800
G1 Z.2 F720
G1 E.8 F2100
M204 S800
G1 F1200
G1 X66.137 Y136.161 E.00846
G1 X66.137 Y73.839 E1.95404
G1 X65.813 Y73.515 E.01437
G1 X65.813 Y136.485 E1.97437
G1 X65.394 Y136.904 E.01858
G1 X65.394 Y73.096 E2.00064
G1 X64.975 Y72.677 E.01858
G1 X64.975 Y137.323 E2.02692
G1 X64.701 Y137.596 E.01212
G1 X64.556 Y137.596 E.00456
G1 X64.556 Y72.404 E2.04406
G1 X64.137 Y72.404 E.01314
G1 X64.137 Y137.596 E2.04406
G1 X63.718 Y137.596 E.01314
G1 X63.718 Y72.404 E2.04406
G1 X63.299 Y72.404 E.01314
M73 Q0 S121
G1 X63.299 Y137.596 E2.04406
G1 X62.88 Y137.596 E.01314
G1 X62.88 Y72.404 E2.04406
G1 X62.461 Y72.404 E.01314
G1 X62.461 Y137.596 E2.04406
G1 X62.042 Y137.596 E.01314
G1 X62.042 Y72.404 E2.04406
G1 X61.623 Y72.404 E.01314
M73 P1 R118
G1 X61.623 Y137.596 E2.04406
G1 X61.204 Y137.596 E.01314
M73 Q1 S121
G1 X61.204 Y72.404 E2.04406
G1 X60.785 Y72.404 E.01314
G1 X60.785 Y137.596 E2.04406
G1 X60.366 Y137.596 E.01314
G1 X60.366 Y72.404 E2.04406
G1 X59.947 Y72.404 E.01314
M73 P1 R117
G1 X59.947 Y137.596 E2.04406
G1 X59.528 Y137.596 E.01314
G1 X59.528 Y72.404 E2.04406
G1 X59.109 Y72.404 E.01314
G1 X59.109 Y137.596 E2.04406
G1 X58.69 Y137.596 E.01314
G1 X58.69 Y72.404 E2.04406
G1 X58.271 Y72.404 E.01314
G1 X58.271 Y137.596 E2.04406
G1 X57.852 Y137.596 E.01314
G1 X57.852 Y72.404 E2.04406
G1 X57.433 Y72.404 E.01314
G1 X57.433 Y137.596 E2.04406
G1 X57.014 Y137.596 E.01314
G1 X57.014 Y72.404 E2.04406
G1 X56.595 Y72.404 E.01314
G1 X56.595 Y137.596 E2.04406
G1 X56.176 Y137.596 E.01314
G1 X56.176 Y72.404 E2.04406
G1 X55.757 Y72.404 E.01314
M73 Q1 S120
G1 X55.757 Y137.596 E2.04406
G1 X55.338 Y137.596 E.01314
G1 X55.338 Y72.404 E2.04406
G1 X54.919 Y72.404 E.01314
G1 X54.919 Y137.596 E2.04406
G1 X54.5 Y137.596 E.01314
G1 X54.5 Y72.404 E2.04406
G1 X54.081 Y72.404 E.01314
G1 X54.081 Y137.596 E2.04406
G1 X53.662 Y137.596 E.01314
G1 X53.662 Y72.404 E2.04406
G1 X53.243 Y72.404 E.01314
G1 X53.243 Y137.596 E2.04406
G1 X52.824 Y137.596 E.01314
G1 X52.824 Y72.404 E2.04406
G1 X52.405 Y72.404 E.01314
M73 P2 R116
G1 X52.405 Y137.596 E2.04406
G1 X51.986 Y137.596 E.01314
M73 Q2 S120
G1 X51.987 Y72.404 E2.04406
G1 X51.568 Y72.404 E.01314
G1 X51.568 Y137.596 E2.04406
G1 X51.149 Y137.596 E.01314
G1 X51.149 Y72.404 E2.04406
G1 X50.73 Y72.404 E.01314
G1 X50.73 Y137.596 E2.04406
G1 X50.311 Y137.596 E.01314
G1 X50.311 Y72.404 E2.04406
G1 X49.892 Y72.404 E.01314
G1 X49.892 Y137.596 E2.04406
G1 X49.473 Y137.596 E.01314
G1 X49.473 Y72.404 E2.04406
G1 X49.054 Y72.404 E.01314
G1 X49.054 Y137.596 E2.04406
G1 X48.635 Y137.596 E.01314
G1 X48.635 Y72.404 E2.04406
G1 X48.216 Y72.404 E.01314
M73 Q2 S119
G1 X48.216 Y137.596 E2.04406
G1 X47.797 Y137.596 E.01314
G1 X47.797 Y72.404 E2.04406
G1 X47.378 Y72.404 E.01314
G1 X47.378 Y137.596 E2.04406
G1 X46.959 Y137.596 E.01314
G1 X46.959 Y72.404 E2.04406
G1 X46.54 Y72.404 E.01314
G1 X46.54 Y137.596 E2.04406
G1 X46.121 Y137.596 E.01314
G1 X46.121 Y72.404 E2.04406
G1 X45.702 Y72.404 E.01314
G1 X45.702 Y137.596 E2.04406
G1 X45.283 Y137.596 E.01314
G1 X45.283 Y72.404 E2.04406
G1 X44.864 Y72.404 E.01314
M73 P2 R115
G1 X44.864 Y137.596 E2.04406
G1 X44.445 Y137.596 E.01314
G1 X44.445 Y72.404 E2.04406
G1 X44.026 Y72.404 E.01314
G1 X44.026 Y137.596 E2.04406
G1 X43.607 Y137.596 E.01314
M73 P3 R115
G1 X43.607 Y72.404 E2.04406
G1 X43.188 Y72.404 E.01314
G1 X43.188 Y137.596 E2.04406
G1 X42.769 Y137.596 E.01314
M73 Q3 S119
G1 X42.769 Y72.404 E2.04406
G1 X42.35 Y72.404 E.01314
G1 X42.35 Y137.596 E2.04406
G1 X41.931 Y137.596 E.01314
G1 X41.931 Y72.404 E2.04406
G1 X41.512 Y72.404 E.01314
G1 X41.512 Y137.596 E2.04406
G1 X41.093 Y137.596 E.01314
G1 X41.093 Y72.404 E2.04406
G1 X40.674 Y72.404 E.01314
M73 Q3 S118
G1 X40.674 Y137.596 E2.04406
G1 X40.255 Y137.596 E.01314
G1 X40.255 Y72.404 E2.04406
G1 X39.836 Y72.404 E.01314
G1 X39.836 Y137.596 E2.04406
G1 X39.417 Y137.596 E.01314
G1 X39.417 Y72.404 E2.04406
G1 X38.998 Y72.404 E.01314
G1 X38.998 Y137.596 E2.04406
G1 X38.579 Y137.596 E.01314
G1 X38.579 Y72.404 E2.04406
M204 S1000
;WIPE_START
G1 F8640
G1 X38.579 Y75.695 E-.76
;WIPE_END
G1 E-.04 F2100
G1 Z.6 F720
G1 X38.452 Y55.655 F10800
G1 Z.2 F720
G1 E.8 F2100
M204 S800
G1 F1200
G1 X38.452 Y55.383 E.00854
G1 X38.16 Y55.091 E.01293
G1 X38.16 Y154.909 E3.12972
G1 X37.741 Y155.328 E.01858
M73 P3 R114
G1 X37.741 Y54.672 E3.156
G1 X37.322 Y54.253 E.01858
G1 X37.322 Y155.747 E3.18227
G1 X37.016 Y156.053 E.01356
G1 X36.903 Y156.053 E.00355
G1 X36.903 Y53.947 E3.20145
G1 X36.484 Y53.947 E.01314
G1 X36.484 Y156.053 E3.20145
G1 X36.065 Y156.053 E.01314
G1 X36.065 Y53.947 E3.20145
G1 X35.646 Y53.947 E.01314
M73 P4 R114
G1 X35.646 Y156.053 E3.20145
G1 X35.227 Y156.053 E.01314
G1 X35.227 Y53.947 E3.20145
G1 X34.808 Y53.947 E.01314
M73 Q4 S117
G1 X34.808 Y156.053 E3.20145
G1 X34.389 Y156.053 E.01314
G1 X34.389 Y53.947 E3.20145
G1 X33.97 Y53.947 E.01314
G1 X33.97 Y156.053 E3.20145
G1 X33.552 Y156.053 E.01314
G1 X33.552 Y53.947 E3.20145
G1 X33.133 Y53.947 E.01314
G1 X33.133 Y156.053 E3.20145
G1 X32.714 Y156.053 E.01314
M73 P4 R113
G1 X32.714 Y53.947 E3.20145
G1 X32.295 Y53.947 E.01314
G1 X32.295 Y156.053 E3.20145
G1 X31.876 Y156.053 E.01314
G1 X31.876 Y53.947 E3.20145
G1 X31.457 Y53.947 E.01314
G1 X31.457 Y156.053 E3.20145
G1 X31.038 Y156.053 E.01314
G1 X31.038 Y53.947 E3.20145
G1 X30.619 Y53.947 E.01314
G1 X30.619 Y156.053 E3.20145
G1 X30.2 Y156.053 E.01314
G1 X30.2 Y53.947 E3.20145
G1 X29.781 Y53.947 E.01314
M73 P5 R113
M73 Q4 S116
G1 X29.781 Y156.053 E3.20145
G1 X29.362 Y156.053 E.01314
G1 X29.362 Y53.947 E3.20145
G1 X28.943 Y53.947 E.01314
M73 Q5 S116
G1 X28.943 Y156.053 E3.20145
G1 X28.524 Y156.053 E.01314
G1 X28.524 Y53.947 E3.20145
G1 X28.105 Y53.947 E.01314
G1 X28.105 Y156.053 E3.20145
G1 X27.686 Y156.053 E.01314
M73 P5 R112
G1 X27.686 Y53.947 E3.20145
G1 X27.267 Y53.947 E.01314
G1 X27.267 Y156.053 E3.20145
G1 X26.848 Y156.053 E.01314
G1 X26.848 Y53.947 E3.20145
G1 X26.429 Y53.947 E.01314
G1 X26.429 Y156.053 E3.20145
G1 X26.01 Y156.053 E.01314
G1 X26.01 Y53.947 E3.20145
G1 X25.591 Y53.947 E.01314
G1 X25.591 Y156.053 E3.20145
G1 X25.172 Y156.053 E.01314
M73 Q5 S115
G1 X25.172 Y53.947 E3.20145
G1 X24.753 Y53.947 E.01314
G1 X24.753 Y156.053 E3.20145
G1 X24.334 Y156.053 E.01314
G1 X24.334 Y53.947 E3.20145
G1 X23.915 Y53.947 E.01314
M73 P6 R112
G1 X23.915 Y156.053 E3.20145
G1 X23.496 Y156.053 E.01314
G1 X23.496 Y53.947 E3.20145
G1 X23.144 Y53.947 E.01105
M73 P6 R111
M73 Q6 S115
G1 X23.077 Y54.014 E.00296
G1 X23.077 Y155.986 E3.19727
G1 X22.658 Y155.567 E.01858
G1 X22.658 Y54.433 E3.171
G1 X22.239 Y54.852 E.01858
G1 X22.239 Y155.148 E3.14473
G1 X21.82 Y154.729 E.01858
G1 X21.82 Y55.271 E3.11845
M204 S1000
; stop printing object Rev B Battery Holder v99.stl id:0 copy 0
M106 S84.15
;LAYER_CHANGE
;Z:0.5
;HEIGHT:0.3
;BEFORE_LAYER_CHANGE
G92 E0.0
;0.5


;WIPE_START
G1 F8640
G1 X21.82 Y58.562 E-.76
;WIPE_END
G1 E-.04 F2100
G1 Z.6 F720
;AFTER_LAYER_CHANGE
;0.5
G1 X18.992 Y58.562 F10800
G1 Z.5 F720
G1 E.8 F2100
;TYPE:Skirt/Brim
G1 F3000
G1 X18.992 Y55.242 E.14726
G1 X19.688 Y53.561 E.0807
G1 X21.322 Y51.927 E.10252
G1 X23.003 Y51.231 E.0807
G1 X37.157 Y51.231 E.62779
G1 X38.476 Y51.63 E.06111
G1 X66.16 Y70.087 E1.47583
G1 X68.157 Y72.018 E.12321
G1 X68.853 Y73.699 E.0807
G1 X68.853 Y136.301 E2.77672
G1 X68.157 Y137.982 E.0807
G1 X66.16 Y139.913 E.12321
G1 X38.476 Y158.37 E1.47583
G1 X37.157 Y158.769 E.06111
G1 X23.003 Y158.769 E.62779
G1 X21.322 Y158.073 E.0807
G1 X19.688 Y156.439 E.10252
G1 X18.992 Y154.758 E.0807
G1 X18.992 Y58.622 E4.26408
; printing object Rev B Battery Holder v99.stl id:0 copy 0
;WIPE_START
G1 F8640
G1 X18.992 Y55.331 E-.76
;WIPE_END
G1 E-.04 F2100
G1 Z.9 F720
G1 X23.812 Y70.547 F10800
G1 Z.5 F720
G1 E.8 F2100
;TYPE:Support material
;WIDTH:0.35
G1 F3000
G1 X23.812 Y72.701 E.07672
G1 X36.348 Y72.701 E.44656
G1 X36.348 Y74.508 E.06438
G1 X63.83 Y74.508 E.97902
G1 X64.033 Y74.711 E.01022
G1 X64.033 Y75.008 E.01058
G1 X23.812 Y75.008 E1.43281
G1 X23.812 Y77.315 E.08219
G1 X64.033 Y77.315 E1.43281
G1 X64.033 Y79.622 E.08219
G1 X23.812 Y79.622 E1.43281
G1 X23.812 Y81.929 E.08219
G1 X64.033 Y81.929 E1.43281
G1 X64.033 Y84.236 E.08219
G1 X23.812 Y84.236 E1.43281
G1 X23.812 Y86.543 E.08219
G1 X64.033 Y86.543 E1.43281
G1 X64.033 Y88.85 E.08219
G1 X23.812 Y88.85 E1.43281
G1 X23.812 Y91.158 E.08219
M73 Q6 S114
G1 X64.033 Y91.158 E1.43281
G1 X64.033 Y93.465 E.08219
G1 X23.812 Y93.465 E1.43281
G1 X23.812 Y95.772 E.08219
G1 X64.033 Y95.772 E1.43281
G1 X64.033 Y98.079 E.08219
G1 X23.812 Y98.079 E1.43281
G1 X23.812 Y100.386 E.08219
G1 X64.033 Y100.386 E1.43281
G1 X64.033 Y102.693 E.08219
G1 X23.812 Y102.693 E1.43281
G1 X23.812 Y105 E.08219
G1 X64.033 Y105 E1.43281
G1 X64.033 Y107.307 E.08219
G1 X23.812 Y107.307 E1.43281
G1 X23.812 Y109.614 E.08219
G1 X64.033 Y109.614 E1.43281
G1 X64.033 Y111.921 E.08219
G1 X23.812 Y111.921 E1.43281
G1 X23.812 Y114.228 E.08219
G1 X64.033 Y114.228 E1.43281
G1 X64.033 Y116.535 E.08219
G1 X23.812 Y116.535 E1.43281
G1 X23.812 Y118.842 E.08219
G1 X64.033 Y118.842 E1.43281
G1 X64.033 Y121.15 E.08219
G1 X23.812 Y121.15 E1.43281
G1 X23.812 Y123.457 E.08219
G1 X64.033 Y123.457 E1.43281
G1 X64.033 Y125.764 E.08219
G1 X23.812 Y125.764 E1.43281
G1 X23.812 Y128.071 E.08219
G1 X64.033 Y128.071 E1.43281
G1 X64.033 Y130.378 E.08219
G1 X23.812 Y130.378 E1.43281
G1 X23.812 Y132.685 E.08219
G1 X64.033 Y132.685 E1.43281
G1 X64.033 Y134.838 E.07672
;WIPE_START
G1 F8640
G1 X64.033 Y132.685 E-.49726
G1 X62.895 Y132.685 E-.26274
;WIPE_END
G1 E-.04 F2100
G1 Z.9 F720
G1 X23.812 Y132.838 F10800
G1 Z.5 F720
G1 E.8 F2100
G1 F3000
G1 X23.812 Y134.992 E.07672
G1 X64.033 Y134.992 E1.43281
G1 X64.033 Y135.289 E.01058
G1 X63.83 Y135.492 E.01022
G1 X36.348 Y135.492 E.97902
G1 X36.348 Y137.299 E.06437
G1 X23.812 Y137.299 E.44656
G1 X23.812 Y139.606 E.08219
G1 X36.348 Y139.606 E.44656
G1 X36.348 Y141.913 E.08219
G1 X23.812 Y141.913 E.44656
G1 X23.812 Y144.22 E.08219
G1 X36.348 Y144.22 E.44656
G1 X36.348 Y146.527 E.08219
G1 X23.812 Y146.527 E.44656
G1 X23.812 Y148.835 E.08219
G1 X36.348 Y148.835 E.44656
G1 X36.348 Y151.142 E.08219
G1 X23.812 Y151.142 E.44656
G1 X23.812 Y153.449 E.08219
G1 X36.348 Y153.449 E.44656
G1 X36.348 Y153.746 E.01058
G1 X36.145 Y153.949 E.01022
G1 X24.015 Y153.949 E.4321
G1 X23.812 Y153.746 E.01022
G1 X23.812 Y153.602 E.00511
;WIPE_START
G1 F8640
G1 X23.812 Y153.746 E-.03314
G1 X24.015 Y153.949 E-.06627
G1 X26.876 Y153.949 E-.66058
;WIPE_END
G1 E-.04 F2100
G1 Z.9 F720
G1 X36.348 Y72.547 F10800
G1 Z.5 F720
M73 P7 R111
G1 E.8 F2100
G1 F3000
G1 X36.348 Y70.394 E.07672
G1 X23.812 Y70.394 E.44656
G1 X23.812 Y68.087 E.08219
G1 X36.348 Y68.087 E.44656
G1 X36.348 Y65.78 E.08219
G1 X23.812 Y65.78 E.44656
G1 X23.812 Y63.473 E.08219
G1 X36.348 Y63.473 E.44656
G1 X36.348 Y61.165 E.08219
M73 P7 R110
G1 X23.812 Y61.165 E.44656
G1 X23.812 Y58.858 E.08219
G1 X36.348 Y58.858 E.44656
G1 X36.348 Y56.551 E.08219
G1 X23.812 Y56.551 E.44656
G1 X23.812 Y56.254 E.01058
G1 X24.015 Y56.051 E.01022
G1 X36.145 Y56.051 E.4321
G1 X36.348 Y56.254 E.01022
G1 X36.348 Y56.398 E.00511
; stop printing object Rev B Battery Holder v99.stl id:0 copy 0
M106 S170.85
;LAYER_CHANGE
;Z:0.8
;HEIGHT:0.3
;BEFORE_LAYER_CHANGE
G92 E0.0
;0.8


;WIPE_START
G1 F8640
G1 X36.348 Y56.254 E-.03314
G1 X36.145 Y56.051 E-.06627
G1 X33.284 Y56.051 E-.66059
;WIPE_END
G1 E-.04 F2100
G1 Z.9 F720
;AFTER_LAYER_CHANGE
;0.8
G1 X33.284 Y51.231 F10800
G1 Z.8 F720
G1 E.8 F2100
;TYPE:Skirt/Brim
;WIDTH:0.42
G1 F3000
G1 X37.157 Y51.231 E.17179
G1 X38.476 Y51.63 E.06111
G1 X66.16 Y70.087 E1.47583
G1 X68.157 Y72.018 E.12321
G1 X68.853 Y73.699 E.0807
G1 X68.853 Y136.301 E2.77672
G1 X68.157 Y137.982 E.0807
G1 X66.16 Y139.913 E.12321
G1 X38.476 Y158.37 E1.47583
G1 X37.157 Y158.769 E.06111
G1 X23.003 Y158.769 E.62779
G1 X21.322 Y158.073 E.0807
G1 X19.688 Y156.439 E.10252
G1 X18.992 Y154.758 E.0807
G1 X18.992 Y55.242 E4.414
G1 X19.688 Y53.561 E.0807
G1 X21.322 Y51.927 E.10252
G1 X23.003 Y51.231 E.0807
G1 X33.224 Y51.231 E.45334
; printing object Rev B Battery Holder v99.stl id:0 copy 0
;WIPE_START
G1 F8640
G1 X36.515 Y51.231 E-.76
;WIPE_END
G1 E-.04 F2100
G1 Z1.2 F720
G1 X36.348 Y56.429 F10800
G1 Z.8 F720
G1 E.8 F2100
;TYPE:Support material interface
;WIDTH:0.35
G1 F2400
G1 X36.348 Y56.254 E.00622
G1 X36.177 Y56.083 E.0086
G1 X36.177 Y153.917 E3.48521
G1 X36.145 Y153.949 E.00162
G1 X35.67 Y153.949 E.01692
G1 X35.67 Y56.051 E3.4875
G1 X35.163 Y56.051 E.01806
M73 Q7 S114
G1 X35.163 Y153.949 E3.4875
G1 X34.656 Y153.949 E.01806
G1 X34.656 Y56.051 E3.4875
G1 X34.149 Y56.051 E.01806
G1 X34.149 Y153.949 E3.4875
G1 X33.642 Y153.949 E.01806
G1 X33.642 Y56.051 E3.4875
G1 X33.135 Y56.051 E.01806
G1 X33.135 Y153.949 E3.4875
G1 X32.627 Y153.949 E.01806
G1 X32.627 Y56.051 E3.4875
G1 X32.12 Y56.051 E.01806
G1 X32.12 Y153.949 E3.4875
G1 X31.613 Y153.949 E.01806
G1 X31.613 Y56.051 E3.4875
G1 X31.106 Y56.051 E.01806
G1 X31.106 Y153.949 E3.4875
G1 X30.599 Y153.949 E.01806
M73 Q7 S113
G1 X30.599 Y56.051 E3.4875
G1 X30.092 Y56.051 E.01806
G1 X30.092 Y153.949 E3.4875
