; generated by PrusaSlicer 2.5.2+MacOS-x64 on 2023-04-15 at 02:15:11 UTC


;
;
; 

; external perimeters extrusion width = 0.45mm
; perimeters extrusion width = 0.45mm
; infill extrusion width = 0.45mm
; solid infill extrusion width = 0.45mm
; top infill extrusion width = 0.40mm
; first layer extrusion width = 0.42mm

M73 P0 R131
M73 Q0 S134
M201 X1000 Y1000 Z200 E5000 ; sets maximum accelerations, mm/sec^2
M203 X200 Y200 Z12 E120 ; sets maximum feedrates, mm / sec
M204 P1250 R1250 T1250 ; sets acceleration (P, T) and retract acceleration (R), mm/sec^2
M205 X8.00 Y8.00 Z0.40 E4.50 ; sets the jerk limits, mm/sec
M205 S0 T0 ; sets the minimum extruding and travel feed rate, mm/sec
M107
;TYPE:Custom
M862.3 P "MK3" ; printer model check
M862.1 P0.4 ; nozzle diameter check
M115 U3.12.2 ; tell printer latest fw version
G90 ; use absolute coordinates
M83 ; extruder relative mode
M104 S215 ; set extruder temp
M140 S60 ; set bed temp
M190 S60 ; wait for bed temp
M109 S215 ; wait for extruder temp
G28 W ; home all without mesh bed level
G80 ; mesh bed leveling

G1 Z0.2 F720
G1 Y-3 F1000 ; go outside print area
G92 E0
G1 X60 E9 F1000 ; intro line
G1 X100 E12.5 F1000 ; intro line

G92 E0
M221 S95

; Don't change E values below. Excessive value can damage the printer.

M907 E538 ; set extruder motor current
G21 ; set units to millimeters
G90 ; use absolute coordinates
M83 ; use relative distances for extrusion
M900 K0.05 ; Filament gcode LA 1.5
M900 K30 ; Filament gcode LA 1.0
M107
;LAYER_CHANGE
;Z:0.2
;HEIGHT:0.2
;BEFORE_LAYER_CHANGE
G92 E0.0
;0.2


G1 E-.8 F2100
G1 Z.4 F720
;AFTER_LAYER_CHANGE
;0.2
G1 X101.219 Y70.907 F10800
G1 Z.2 F720
G1 E.8 F2100
M204 S800
;TYPE:Skirt/Brim
;WIDTH:0.42
G1 F1200
G1 X104.207 Y67.919 E.13247
G1 X105.888 Y67.223 E.05704
G1 X144.112 Y67.223 E1.19852
G1 X145.793 Y67.919 E.05704
G1 X148.781 Y70.907 E.13247
G1 X149.477 Y72.588 E.05704
G1 X149.477 Y137.412 E2.03254
G1 X148.781 Y139.093 E.05704
G1 X145.793 Y142.081 E.13247
G1 X144.112 Y142.777 E.05704
G1 X105.888 Y142.777 E1.19852
G1 X104.207 Y142.081 E.05704
G1 X101.219 Y139.093 E.13247
G1 X100.523 Y137.412 E.05704
G1 X100.523 Y72.588 E2.03254
G1 X101.196 Y70.962 E.05516
M204 S1000
;WIPE_START
G1 F8640
G1 X103.511 Y68.622 E-.76
;WIPE_END
G1 E-.04 F2100
G1 Z.6 F720
G1 X103.811 Y72.281 F10800
G1 Z.2 F720
G1 E.8 F2100
M204 S800
G1 F1200
G1 X104.319 Y71.596 E.02674
G1 X105.35 Y70.659 E.04366
G1 X106.27 Y70.201 E.03223
G1 X107.582 Y69.886 E.04232
G1 X142.389 Y69.89 E1.09135
G1 X143.41 Y70.084 E.03256
G1 X144.388 Y70.5 E.03333
G1 X145.512 Y71.396 E.04508
G1 X146.405 Y72.734 E.05044
G1 X146.813 Y74.279 E.05011
G1 X146.813 Y135.747 E1.9273
G1 X146.189 Y137.719 E.06486
G1 X145.681 Y138.404 E.02674
G1 X144.65 Y139.341 E.04366
G1 X143.73 Y139.799 E.03223
G1 X142.418 Y140.113 E.04231
G1 X107.553 Y140.113 E1.09316
G1 X105.581 Y139.489 E.06486
G1 X104.896 Y138.981 E.02674
G1 X103.959 Y137.95 E.04366
G1 X103.501 Y137.03 E.03223
G1 X103.187 Y135.718 E.04231
G1 X103.187 Y74.253 E1.92719
G1 X103.793 Y72.338 E.06298
M204 S1000
G1 X104.134 Y72.479 F10800
M204 S800
G1 F1200
G1 X104.589 Y71.861 E.02407
G1 X105.544 Y70.984 E.04065
G1 X106.381 Y70.562 E.0294
G1 X107.605 Y70.264 E.03952
G1 X142.371 Y70.267 E1.09005
G1 X143.317 Y70.45 E.03022
G1 X144.215 Y70.836 E.03062
G1 X145.253 Y71.671 E.0418
G1 X146.049 Y72.862 E.0449
G1 X146.436 Y74.304 E.04682
G1 X146.436 Y135.718 E1.9256
G1 X145.866 Y137.521 E.05929
G1 X145.412 Y138.139 E.02407
G1 X144.457 Y139.016 E.04065
G1 X143.619 Y139.438 E.0294
G1 X142.395 Y139.736 E.03951
G1 X107.582 Y139.736 E1.09154
G1 X105.779 Y139.166 E.05929
G1 X105.161 Y138.712 E.02407
G1 X104.284 Y137.756 E.04065
G1 X103.862 Y136.919 E.0294
G1 X103.564 Y135.695 E.03951
G1 X103.564 Y74.282 E1.92556
G1 X104.115 Y72.536 E.05741
M204 S1000
M73 Q0 S133
G1 X104.456 Y72.676 F10800
M204 S800
G1 F1200
G1 X104.859 Y72.124 E.02142
G1 X105.739 Y71.307 E.03764
G1 X106.494 Y70.923 E.02656
G1 X107.629 Y70.641 E.03668
M73 P0 R130
G1 X142.352 Y70.644 E1.08873
G1 X143.224 Y70.816 E.02785
G1 X144.04 Y71.171 E.0279
G1 X144.993 Y71.945 E.03848
G1 X145.717 Y73.043 E.04126
G1 X146.059 Y74.328 E.0417
G1 X146.059 Y135.689 E1.92394
G1 X145.544 Y137.324 E.05375
G1 X145.141 Y137.876 E.02142
G1 X144.261 Y138.693 E.03764
G1 X143.506 Y139.077 E.02656
G1 X142.371 Y139.359 E.03667
G1 X107.611 Y139.359 E1.0899
G1 X105.976 Y138.844 E.05375
G1 X105.424 Y138.441 E.02142
G1 X104.607 Y137.561 E.03764
G1 X104.223 Y136.806 E.02656
G1 X103.941 Y135.671 E.03667
G1 X103.941 Y74.311 E1.92393
G1 X104.438 Y72.733 E.05187
M204 S1000
G1 X104.78 Y72.872 F10800
M204 S800
G1 F1200
G1 X105.131 Y72.386 E.01879
G1 X105.936 Y71.63 E.03463
G1 X106.608 Y71.283 E.02372
G1 X107.653 Y71.018 E.03379
G1 X142.333 Y71.021 E1.08738
G1 X143.129 Y71.181 E.02544
G1 X143.864 Y71.505 E.02518
G1 X144.73 Y72.217 E.03516
G1 X145.385 Y73.223 E.03763
G1 X145.682 Y74.352 E.03663
G1 X145.682 Y135.661 E1.92228
G1 X145.22 Y137.128 E.04825
G1 X144.869 Y137.614 E.01879
G1 X144.064 Y138.37 E.03463
G1 X143.392 Y138.717 E.02372
G1 X142.348 Y138.982 E.03378
G1 X107.639 Y138.982 E1.08825
G1 X106.172 Y138.52 E.04825
G1 X105.686 Y138.169 E.01879
G1 X104.93 Y137.364 E.03463
G1 X104.583 Y136.692 E.02372
G1 X104.318 Y135.648 E.03378
G1 X104.318 Y74.339 E1.92227
G1 X104.762 Y72.929 E.04637
M204 S1000
G1 X105.104 Y73.066 F10800
M204 S800
G1 F1200
G1 X105.404 Y72.646 E.01619
G1 X106.135 Y71.951 E.03162
G1 X106.725 Y71.642 E.02087
G1 X107.677 Y71.395 E.03085
G1 X142.315 Y71.398 E1.08603
G1 X142.996 Y71.535 E.02178
G1 X143.687 Y71.839 E.02369
G1 X144.467 Y72.488 E.03181
G1 X145.029 Y73.35 E.03225
G1 X145.305 Y74.378 E.03337
G1 X145.305 Y135.632 E1.92058
G1 X144.896 Y136.934 E.0428
G1 X144.596 Y137.354 E.01619
G1 X143.865 Y138.049 E.03162
G1 X143.275 Y138.358 E.02087
G1 X142.323 Y138.605 E.03084
G1 X107.668 Y138.605 E1.08658
G1 X106.366 Y138.196 E.0428
G1 X105.946 Y137.896 E.01619
G1 X105.251 Y137.165 E.03162
G1 X104.942 Y136.575 E.02087
G1 X104.695 Y135.623 E.03084
G1 X104.695 Y74.368 E1.92061
G1 X105.086 Y73.123 E.04092
M204 S1000
G1 X105.43 Y73.259 F10800
M204 S800
G1 F1200
G1 X105.68 Y72.904 E.01361
G1 X106.337 Y72.271 E.02862
G1 X106.844 Y72 E.01801
G1 X107.702 Y71.772 E.02785
G1 X142.295 Y71.776 E1.08463
G1 X142.899 Y71.9 E.01932
G1 X143.508 Y72.172 E.02093
G1 X144.201 Y72.757 E.02843
G1 X144.695 Y73.528 E.0287
G1 X144.928 Y74.402 E.02837
G1 X144.928 Y135.603 E1.91892
G1 X144.57 Y136.741 E.03741
G1 X144.32 Y137.096 E.01361
G1 X143.663 Y137.729 E.02862
G1 X143.156 Y138 E.01801
G1 X142.298 Y138.228 E.02785
G1 X107.697 Y138.228 E1.08489
G1 X106.559 Y137.87 E.03741
M73 P1 R130
G1 X106.204 Y137.62 E.01361
G1 X105.571 Y136.963 E.02862
G1 X105.3 Y136.456 E.01801
G1 X105.072 Y135.598 E.02785
G1 X105.072 Y74.397 E1.91892
G1 X105.412 Y73.316 E.03552
M204 S1000
M73 Q1 S133
G1 X105.756 Y73.45 F10800
M204 S800
G1 F1200
G1 X105.957 Y73.16 E.01106
G1 X106.541 Y72.588 E.02562
G1 X106.966 Y72.358 E.01515
G1 X107.728 Y72.149 E.02478
G1 X142.275 Y72.153 E1.08318
G1 X142.799 Y72.264 E.01681
G1 X143.327 Y72.504 E.01817
G1 X143.934 Y73.025 E.0251
G1 X144.339 Y73.656 E.02351
G1 X144.551 Y74.428 E.0251
G1 X144.551 Y135.574 E1.9172
G1 X144.244 Y136.55 E.03208
G1 X144.043 Y136.84 E.01106
G1 X143.459 Y137.412 E.02562
G1 X143.034 Y137.642 E.01515
G1 X142.272 Y137.851 E.02478
G1 X107.726 Y137.851 E1.08318
G1 X106.75 Y137.544 E.03208
G1 X106.46 Y137.343 E.01106
G1 X105.888 Y136.759 E.02562
G1 X105.658 Y136.334 E.01515
G1 X105.449 Y135.572 E.02478
G1 X105.449 Y74.426 E1.9172
G1 X105.738 Y73.507 E.03019
M204 S1000
G1 X106.083 Y73.639 F10800
M204 S800
G1 F1200
G1 X106.237 Y73.414 E.00855
G1 X106.749 Y72.904 E.02264
G1 X107.091 Y72.714 E.01229
G1 X107.755 Y72.526 E.02163
G1 X142.253 Y72.53 E1.08167
G1 X142.697 Y72.627 E.01423
G1 X143.143 Y72.834 E.01541
G1 X143.666 Y73.291 E.02178
G1 X143.985 Y73.786 E.01847
G1 X144.174 Y74.455 E.02179
G1 X144.174 Y135.545 E1.91545
G1 X143.917 Y136.361 E.02682
G1 X143.763 Y136.586 E.00855
G1 X143.251 Y137.096 E.02264
G1 X142.909 Y137.286 E.01229
G1 X142.245 Y137.474 E.02163
G1 X107.755 Y137.474 E1.08143
G1 X106.939 Y137.217 E.02682
M73 Q1 S132
G1 X106.714 Y137.063 E.00855
G1 X106.204 Y136.551 E.02264
G1 X106.014 Y136.209 E.01229
G1 X105.826 Y135.545 E.02163
G1 X105.826 Y74.455 E1.91545
G1 X106.065 Y73.696 E.02494
M204 S1000
M73 P1 R129
G1 X106.412 Y73.825 F10800
M204 S800
G1 F1200
G1 X106.519 Y73.664 E.00606
G1 X106.96 Y73.218 E.01967
G1 X107.22 Y73.069 E.00942
G1 X107.783 Y72.903 E.01838
G1 X142.231 Y72.907 E1.08009
G1 X142.591 Y72.99 E.01157
G1 X142.956 Y73.162 E.01266
G1 X143.396 Y73.554 E.01848
G1 X143.631 Y73.92 E.01362
G1 X143.797 Y74.483 E.01841
G1 X143.797 Y135.516 E1.91366
G1 X143.588 Y136.175 E.02167
G1 X143.481 Y136.336 E.00606
G1 X143.04 Y136.782 E.01967
G1 X142.78 Y136.931 E.00942
G1 X142.217 Y137.097 E.01838
G1 X107.784 Y137.097 E1.07964
G1 X107.125 Y136.888 E.02167
G1 X106.964 Y136.781 E.00606
G1 X106.518 Y136.34 E.01967
G1 X106.369 Y136.08 E.00942
G1 X106.203 Y135.517 E.01838
G1 X106.203 Y74.484 E1.91366
G1 X106.394 Y73.882 E.01979
M204 S1000
G1 X106.743 Y74.007 F10800
M204 S800
G1 F1200
G1 X106.804 Y73.911 E.00358
G1 X107.175 Y73.528 E.01672
G1 X107.355 Y73.421 E.00656
G1 X107.812 Y73.28 E.015
G1 X142.209 Y73.284 E1.07849
G1 X142.447 Y73.339 E.00767
G1 X142.768 Y73.491 E.01111
G1 X143.123 Y73.815 E.01508
G1 X143.279 Y74.057 E.00902
G1 X143.42 Y74.512 E.01495
G1 X143.42 Y135.487 E1.9118
G1 X143.257 Y135.993 E.01667
G1 X143.196 Y136.089 E.00358
G1 X142.825 Y136.472 E.01672
G1 X142.645 Y136.579 E.00656
G1 X142.188 Y136.72 E.015
G1 X107.813 Y136.72 E1.07778
G1 X107.307 Y136.557 E.01667
G1 X107.211 Y136.496 E.00358
G1 X106.828 Y136.125 E.01672
G1 X106.721 Y135.945 E.00656
G1 X106.58 Y135.488 E.015
G1 X106.58 Y74.513 E1.91181
G1 X106.724 Y74.064 E.01478
M204 S1000
G1 X107.076 Y74.183 F10800
M204 S800
G1 F1200
G1 X107.397 Y73.834 E.01486
G1 X107.498 Y73.771 E.00372
G1 X107.844 Y73.657 E.01143
G1 X142.187 Y73.661 E1.0768
G1 X142.304 Y73.688 E.00377
G1 X142.578 Y73.818 E.0095
G1 X142.847 Y74.073 E.0116
G1 X142.93 Y74.2 E.00476
G1 X143.043 Y74.544 E.01136
G1 X143.043 Y135.456 E1.90984
G1 X142.906 Y135.847 E.01299
G1 X142.603 Y136.166 E.0138
G1 X142.502 Y136.229 E.00372
G1 X142.156 Y136.343 E.01143
G1 X107.844 Y136.343 E1.07582
G1 X107.453 Y136.206 E.01299
G1 X107.134 Y135.903 E.0138
G1 X107.071 Y135.802 E.00372
G1 X106.957 Y135.456 E.01143
G1 X106.957 Y74.544 E1.90984
G1 X107.058 Y74.24 E.01005
M204 S1000
G1 X107.411 Y74.366 F10800
M204 S800
G1 F1200
G1 X107.628 Y74.132 E.01002
G1 X107.879 Y74.034 E.00845
G1 X142.135 Y74.034 E1.07407
G1 X142.385 Y74.144 E.00856
G1 X142.584 Y74.352 E.00902
G1 X142.666 Y74.579 E.00757
G1 X142.666 Y135.421 E1.90765
G1 X142.589 Y135.634 E.00709
G1 X142.348 Y135.884 E.0109
G1 X142.121 Y135.966 E.00757
G1 X107.879 Y135.966 E1.07362
G1 X107.666 Y135.889 E.00709
G1 X107.416 Y135.648 E.0109
G1 X107.334 Y135.421 E.00757
G1 X107.334 Y74.579 E1.90765
G1 X107.39 Y74.423 E.00521
M204 S1000
G1 X107.735 Y74.565 F10800
M204 S800
G1 F1200
G1 X107.852 Y74.44 E.00538
G1 X107.921 Y74.411 E.00235
G1 X142.079 Y74.411 E1.071
G1 X142.148 Y74.44 E.00235
G1 X142.26 Y74.552 E.00495
G1 X142.289 Y74.621 E.00235
G1 X142.289 Y135.379 E1.90502
G1 X142.26 Y135.448 E.00235
G1 X142.148 Y135.56 E.00495
G1 X142.079 Y135.589 E.00235
G1 X107.921 Y135.589 E1.071
G1 X107.852 Y135.56 E.00235
G1 X107.74 Y135.448 E.00495
G1 X107.711 Y135.379 E.00235
G1 X107.712 Y74.621 E1.90503
M204 S1000
; printing object RevB Bat Box Mk II v36.stl id:0 copy 0
;WIPE_START
G1 F8640
G1 X107.852 Y74.44 E-.05278
G1 X107.921 Y74.411 E-.01732
G1 X110.909 Y74.411 E-.68991
;WIPE_END
G1 E-.04 F2100
G1 Z.6 F720
G1 X108.587 Y75.287 F10800
G1 Z.2 F720
G1 E.8 F2100
M204 S800
;TYPE:Perimeter
;WIDTH:0.419999
G1 F1200
G1 X141.413 Y75.287 E1.02923
G1 X141.413 Y134.713 E1.86325
G1 X108.587 Y134.713 E1.02923
M73 P2 R129
G1 X108.587 Y75.347 E1.86137
M204 S1000
M73 Q1 S131
G1 X108.21 Y74.91 F10800
M204 S800
;TYPE:External perimeter
M73 P2 R128
M73 Q2 S131
G1 F1200
G1 X141.79 Y74.91 E1.05288
G1 X141.79 Y135.09 E1.8869
G1 X108.21 Y135.09 E1.05288
G1 X108.21 Y74.97 E1.88502
M204 S1000
G1 X108.585 Y75.049 F10800
;WIPE_START
G1 F8640
G1 X111.501 Y74.964 E-.76
;WIPE_END
G1 E-.04 F2100
G1 Z.6 F720
G1 X112.555 Y80.971 F10800
G1 Z.2 F720
G1 E.8 F2100
M204 S800
;TYPE:Perimeter
G1 F1200
G1 X112.393 Y80.936 E.00522
G1 X112.168 Y80.75 E.00912
G1 X112.071 Y80.519 E.00786
G1 X112.063 Y80.421 E.00308
G1 X112.063 Y78.579 E.05778
G1 X112.153 Y78.272 E.01
G1 X112.265 Y78.145 E.00532
G1 X112.531 Y78.021 E.00919
G1 X120.971 Y78.013 E.26465
G1 X121.189 Y78.056 E.00696
G1 X121.362 Y78.169 E.00646
G1 X121.523 Y78.454 E.01029
G1 X121.537 Y80.421 E.06168
G1 X121.471 Y80.687 E.00856
G1 X121.298 Y80.883 E.00822
G1 X121.069 Y80.979 E.00777
G1 X118.262 Y80.987 E.08804
G1 X117.863 Y81.294 E.01577
G1 X117.385 Y81.502 E.01634
G1 X116.871 Y81.584 E.01634
G1 X116.352 Y81.537 E.01634
G1 X115.861 Y81.362 E.01634
G1 X115.428 Y81.071 E.01634
G1 X115.338 Y80.987 E.00386
G1 X112.614 Y80.984 E.08543
M204 S1000
G1 X112.629 Y80.61 F10800
M204 S800
;TYPE:External perimeter
G1 F1200
G1 X112.511 Y80.569 E.00391
G1 X112.44 Y80.421 E.00513
G1 X112.44 Y78.579 E.05778
G1 X112.507 Y78.434 E.005
G1 X112.629 Y78.39 E.00404
G1 X120.971 Y78.39 E.26159
G1 X121.101 Y78.442 E.00439
G1 X121.16 Y78.579 E.00466
G1 X121.16 Y80.421 E.05778
G1 X121.09 Y80.568 E.0051
G1 X120.971 Y80.61 E.00394
G1 X118.088 Y80.61 E.09042
G1 X117.951 Y80.766 E.0065
G1 X117.601 Y81.011 E.0134
G1 X117.201 Y81.163 E.0134
G1 X116.776 Y81.21 E.0134
G1 X116.353 Y81.151 E.0134
G1 X115.929 Y80.968 E.01448
G1 X115.615 Y80.733 E.0123
G1 X115.512 Y80.61 E.00503
G1 X112.689 Y80.61 E.08854
M204 S1000
G1 X112.542 Y80.7 F10800
;WIPE_START
G1 F8640
G1 X112.511 Y80.569 E-.04211
G1 X112.44 Y80.421 E-.03775
G1 X112.44 Y78.579 E-.42553
G1 X112.507 Y78.434 E-.03681
G1 X112.629 Y78.39 E-.02976
G1 X113.443 Y78.39 E-.18803
;WIPE_END
G1 E-.04 F2100
G1 Z.6 F720
G1 X115.189 Y84.032 F10800
G1 Z.2 F720
G1 E.8 F2100
M204 S800
;TYPE:Perimeter
G1 F1200
G1 X115.21 Y84 E.0012
G1 X115.446 Y83.879 E.00833
G1 X118.021 Y83.863 E.08075
G1 X118.227 Y83.902 E.00657
G1 X118.39 Y84 E.00597
G1 X118.562 Y84.261 E.00978
G1 X118.587 Y85.274 E.03179
G1 X118.587 Y94.871 E.30092
G1 X118.523 Y95.133 E.00845
G1 X118.341 Y95.338 E.0086
G1 X118.079 Y95.434 E.00873
G1 X115.579 Y95.437 E.07842
G1 X115.361 Y95.394 E.00696
G1 X115.126 Y95.211 E.00933
G1 X115.021 Y94.969 E.00826
G1 X115.013 Y84.429 E.33049
G1 X115.038 Y84.261 E.00533
G1 X115.156 Y84.082 E.0067
M204 S1000
G1 X115.456 Y84.286 F10800
M204 S800
;TYPE:External perimeter
G1 F1200
G1 X115.579 Y84.24 E.00411
G1 X118.021 Y84.24 E.0766
G1 X118.144 Y84.286 E.00411
G1 X118.21 Y84.429 E.00493
G1 X118.21 Y94.871 E.32743
G1 X118.139 Y95.019 E.00513
G1 X118.021 Y95.06 E.00391
G1 X115.579 Y95.06 E.0766
G1 X115.452 Y95.011 E.00424
G1 X115.39 Y94.871 E.0048
G1 X115.39 Y84.429 E.32743
G1 X115.431 Y84.34 E.00305
M204 S1000
G1 X115.425 Y84.158 F10800
;WIPE_START
G1 F8640
G1 X115.579 Y84.24 E-.04126
G1 X118.021 Y84.24 E-.56408
G1 X118.144 Y84.286 E-.03029
G1 X118.21 Y84.429 E-.03631
G1 X118.21 Y84.81 E-.08807
;WIPE_END
G1 E-.04 F2100
G1 Z.6 F720
G1 X128.946 Y80.967 F10800
G1 Z.2 F720
G1 E.8 F2100
M204 S800
;TYPE:Perimeter
G1 F1200
G1 X128.768 Y80.924 E.00573
G1 X128.567 Y80.748 E.00838
G1 X128.465 Y80.471 E.00926
G1 X128.463 Y80.421 E.00155
G1 X128.463 Y78.579 E.05778
G1 X128.477 Y78.454 E.00392
G1 X128.638 Y78.169 E.01029
G1 X128.931 Y78.021 E.01027
G1 X137.371 Y78.013 E.26465
G1 X137.571 Y78.049 E.00635
G1 X137.735 Y78.145 E.00596
G1 X137.913 Y78.416 E.01016
G1 X137.937 Y78.579 E.00516
G1 X137.937 Y80.421 E.05778
G1 X137.909 Y80.598 E.00562
G1 X137.724 Y80.863 E.01012
G1 X137.44 Y80.983 E.00969
G1 X134.662 Y80.987 E.0871
G1 X134.263 Y81.294 E.01577
G1 X133.785 Y81.502 E.01634
G1 X133.271 Y81.584 E.01634
G1 X132.752 Y81.537 E.01634
G1 X132.261 Y81.362 E.01634
G1 X131.828 Y81.071 E.01634
G1 X131.738 Y80.987 E.00386
G1 X129.004 Y80.981 E.08574
M204 S1000
G1 X129.029 Y80.61 F10800
M204 S800
;TYPE:External perimeter
G1 F1200
G1 X128.887 Y80.546 E.00486
